!!!!SEGMENT: pl-sa--55-a-i-55--004_wanski-jan--missa-solemnissima-credo.krn
!!!cenid: 18xx:342
!!!COM: Wański, Jan
!!!COM-rismID: pe30003295
!!!CDT: ~1800-1888/04
!!!CNT: Polish
!!!OPR: Missa Solemnissima
!!!OTL: Credo
!!!OMV: 004
!!!PDT: 1830
!!!AGN: Sacred; Mass
!!!SMS-siglum: PL-SA
!!!SMS-shelfmark: 55/A I 55
!!!SMS-shelfwork: 001-004 M
!!!SMS-variant:
!!!SMS-altvar:
!!!NIFC-rismSourceID: 1001035335
!!!NIFC-islandoraID:
!!!URL-pdf-islandora:
!!!URL-scan: https://bc.bdsandomierz.pl/dlibra/publication/1331/edition/1299/content @EN{Scan in the Sandomierz Diocese Digital Library} @PL{Skany w portalu Cyfrowa Biblioteka Diecezjalna w Sandomierzu}
!!!ONB-nifc: UWAGA: części Mszy: Kyrie, Christe, Gloria, Credo, Sanctus, Pleni Sunt, Benedictus, Agnus Dei
!!!AIN: 1 alto 3 empty 1 organ 1 tenor 2 violn 1 vox
!!!key:
**kern	**fba	**kern	**dynam	**kern	**kern	**dynam	**kern	**text	**kern	**text	**kern	**text	**kern	**text	**kern	**kern
*part9	*	*part9	*part9	*part8	*part7	*part7	*part6	*part6	*part5	*part5	*part4	*part4	*part3	*part3	*part2	*part1
*	*	*	*	*group3	*group3	*	*group2	*	*group2	*	*group2	*	*group2	*	*group1	*group1
*staff10	*	*staff9	*	*staff8	*staff7	*	*staff6	*staff6	*staff5	*staff5	*staff4	*staff4	*staff3	*staff3	*staff2	*staff1
*Iorgan	*	*Iempty	*	*Ivioln	*Ivioln	*	*Iempty	*	*Itenor	*	*Ialto	*	*Ivox	*	*Iempty	*Iempty
*I"Organo.	*	*	*	*I"Violin Secundo.	*I"Violino Primo.	*	*I"Baſso.	*	*I"Tenore.	*	*I"Alto.	*	*I"Canto.	*	*I"Cornu Secundo. in C.	*I"Cornu Primo in C.
*I'org	*	*	*	*I'vl 2	*I'vl 1	*	*I'B	*	*I'T	*	*I'A	*	*I'C	*	*I'cor 2	*I'cor 1
*clefF4	*	*clefC1	*	*clefG2	*clefG2	*	*clefF4	*	*clefC4	*	*clefC3	*	*clefC1	*	*clefG2	*clefG2
*	*	*	*	*	*	*	*	*	*	*	*	*	*	*	*Trd0c0	*Trd0c0
*k[]	*	*k[]	*	*k[]	*k[]	*	*k[]	*	*k[]	*	*k[]	*	*k[]	*	*k[]	*k[]
*C:	*	*C:	*	*C:	*C:	*	*C:	*	*C:	*	*C:	*	*C:	*	*C:	*C:
*M3/4	*	*M3/4	*	*M3/4	*M3/4	*	*M3/4	*	*M3/4	*	*M3/4	*	*M3/4	*	*M3/4	*M3/4
=1	=1	=1	=1	=1	=1	=1	=1	=1	=1	=1	=1	=1	=1	=1	=1	=1
*all\right	*	*all\right	*	*all\right	*all\right	*	*all\right	*	*all\right	*	*all\right	*	*all\right	*	*all\right	*all\right
*	*	*	*	*2\right	*2\right	*	*	*	*	*	*	*	*	*	*	*2\right
!	!	!	!	!	!	!	!	!	!	!	!	!	!	!	!LO:TX:a:t=P:problem=na karcie tytułowej nazwa instrumentu Clarino Secondo	!LO:TX:a:t=P:problem=na karcie tytułowej nazwa instrumentu Clarino Primo
!LO:TX:a:t=Allegro Tutti.	!	!	!	!LO:TX:a:t=Allegro.	!LO:TX:a:t=Allegro.	!	!LO:TX:a:t=Allegro.	!	!LO:TX:a:t=Allegro Tutti.	!	!LO:TX:a:t=Allegro.	!	!LO:TX:a:t=Allegro.	!	!LO:TX:a:t=Allo.	!LO:TX:a:t=Allo.
8C/L	.	2.ryy	.	2e/	2cc\	.	4c\	Pa-	4e\	Pa-	4g\	Pa-	4cc\	Pa-	2e/	2cc\
8GG/	.	.	.	.	.	.	.	.	.	.	.	.	.	.	.	.
8C/	.	.	.	.	.	.	4c\	-trem	4e\	-trem	4g\	-trem	4cc\	-trem	.	.
8GG/	.	.	.	.	.	.	.	.	.	.	.	.	.	.	.	.
8C/	.	.	.	4e/	4cc\	.	4c\	o-	4e\	o-	4g\	o-	4cc\	o-	4e/	4cc\
8GG/J	.	.	.	.	.	.	.	.	.	.	.	.	.	.	.	.
=2	=2	=2	=2	=2	=2	=2	=2	=2	=2	=2	=2	=2	=2	=2	=2	=2
*	*	*	*	*	*	*	*2\right	*	*2\right	*	*2\right	*	*2\right	*	*	*
8BB/L	6	2.ryy	.	2g/	2dd\	.	2G\	-mni-	2B\	-mni-	2g\	-mni-	2dd\	-mni-	2g/	2dd\
8GG/	.	.	.	.	.	.	.	.	.	.	.	.	.	.	.	.
8BB/	.	.	.	.	.	.	.	.	.	.	.	.	.	.	.	.
8GG/	.	.	.	.	.	.	.	.	.	.	.	.	.	.	.	.
!LO:SIC:v:s=8C	!	!	!	!	!	!	!	!	!	!	!	!	!	!	!	!
8BB/	8 3	.	.	4cc\	4ee\	.	4c\	-po-	4c\	-po-	4g\	-po-	4ee\	-po-	4cc\	4ee\
8GG/J	.	.	.	.	.	.	.	.	.	.	.	.	.	.	.	.
=3	=3	=3	=3	=3	=3	=3	=3	=3	=3	=3	=3	=3	=3	=3	=3	=3
8D/L	6	2.ryy	.	4dd\	4ff\	.	4d\	-ten-	4d\	-ten-	4g\	-ten-	4ff\	-ten-	4dd\	4ff\
8GG/	.	.	.	.	.	.	.	.	.	.	.	.	.	.	.	.
8C/	8 3	.	.	4cc\	4ee\	.	4c\	-tem	4c\	-tem	4g\	-tem	4ee\	-tem	4cc\	4ee\
8GG/	.	.	.	.	.	.	.	.	.	.	.	.	.	.	.	.
8BB/	6	.	.	4g/	4dd\	.	4G\	fa-	4B\	fa-	4g\	fa-	4dd\	fa-	4g/	4dd\
8GG/J	.	.	.	.	.	.	.	.	.	.	.	.	.	.	.	.
=4	=4	=4	=4	=4	=4	=4	=4	=4	=4	=4	=4	=4	=4	=4	=4	=4
4C/	.	2.ryy	.	4cc\	4ee\	.	4c\	-cto-	4c\	-cto-	4g\	-cto-	4ee\	-cto-	4cc\	4ee\
4GG/	.	.	.	4b\	4dd\	.	4G\	-rem	4B\	-rem	4g\	-rem	4dd\	-rem	4g/	4dd\
4r	.	.	.	4cc\	8ee\L	.	4r	.	4r	.	4r	.	4r	.	4r	4r
.	.	.	.	.	8gg\J	.	.	.	.	.	.	.	.	.	.	.
=5	=5	=5	=5	=5	=5	=5	=5	=5	=5	=5	=5	=5	=5	=5	=5	=5
!LO:TX:a:t=2	!	!	!	!	!	!	!LO:TX:a:t=2	!	!LO:TX:a:t=2	!	!LO:TX:a:t=2	!	!LO:TX:a:t=2	!	!LO:TX:a:t=4	!LO:TX:a:t=4
!LO:N:vis=0	!	!	!	!	!	!	!LO:N:vis=0	!	!LO:N:vis=0	!	!LO:N:vis=0	!	!LO:N:vis=0	!	!LO:N:vis=00	!LO:N:vis=00
1.r	.	2.ryy	.	4a/	4ff\	.	1.r	.	1.r	.	1.r	.	1.r	.	0.r	0.r
.	.	.	.	4g/	4ee\	.	.	.	.	.	.	.	.	.	.	.
.	.	.	.	4f/	4dd\	.	.	.	.	.	.	.	.	.	.	.
=6	=6	=6	=6	=6	=6	=6	=6	=6	=6	=6	=6	=6	=6	=6	=6	=6
.	.	2.ryy	.	4f/	8cc\L	.	.	.	.	.	.	.	.	.	.	.
.	.	.	.	.	8ee\J	.	.	.	.	.	.	.	.	.	.	.
.	.	.	.	4g/	4dd\	.	.	.	.	.	.	.	.	.	.	.
.	.	.	.	4r	4r	.	.	.	.	.	.	.	.	.	.	.
=7	=7	=7	=7	=7	=7	=7	=7	=7	=7	=7	=7	=7	=7	=7	=7	=7
!	!	!	!	!	!	!	!LO:SIC:v:l:s=Coe-	!	!	!	!LO:SIC:v:l:s=Coe-	!	!LO:SIC:v:l:s=Coe-	!	!	!
4A\	6	2.ryy	.	4cc\	4ff\	.	4A\	Ce-	4f\	Coe-	4cc\	Ce-	4ff\	Ce-	.	.
4G\	6	.	.	4b\	4ee\	.	4G\	-li	4e\	-li	4b\	-li	4ee\	-li	.	.
4F\	6	.	.	4a\	4dd\	.	4F\	et	4d\	et	4a\	et	4dd\	et	.	.
=8	=8	=8	=8	=8	=8	=8	=8	=8	=8	=8	=8	=8	=8	=8	=8	=8
4F\	4 2	2.ryy	.	4d/	4b\	.	4F\	ter-	4B\	ter-	4g\	ter-	4b\	ter-	.	.
!	!	!	!	!	!	!	!LO:SIC:v:l:s=-rae	!	!LO:SIC:v:l:s=-rae	!	!	!	!LO:SIC:v:l:s=-rae	!	!	!
4E\	6	.	.	4g/	8cc\L	.	4E\	-re	4c\	-re	4g\	-rae	4cc\	-re	.	.
.	.	.	.	.	8gg\	.	.	.	.	.	.	.	.	.	.	.
4r	.	.	.	4r	8ee\	.	4r	.	4r	.	4r	.	4r	.	.	.
.	.	.	.	.	8cc\J	.	.	.	.	.	.	.	.	.	.	.
=9	=9	=9	=9	=9	=9	=9	=9	=9	=9	=9	=9	=9	=9	=9	=9	=9
*	*	*	*	*tremolo	*	*	*	*	*	*	*	*	*	*	*	*
8G\L	5 3	2.ryy	.	8b\L	8dd\L	.	2G\	vi-	2B\	vi-	2g\	Vi-	2dd\	vi-	2.g/	2.dd\
8G\J	.	.	.	8b\	8dd\	.	.	.	.	.	.	.	.	.	.	.
*2\right	*	*	*	*	*	*	*	*	*	*	*	*	*	*	*	*
*tremolo	*	*	*	*	*	*	*	*	*	*	*	*	*	*	*	*
8G\L	.	.	.	8b\	8dd\	.	.	.	.	.	.	.	.	.	.	.
8G\	.	.	.	8b\	8dd\	.	.	.	.	.	.	.	.	.	.	.
8G\	.	.	.	8b\	8dd\	.	4G\	-si-	4B\	-si-	4g\	-si-	4dd\	-si-	.	.
8G\J	.	.	.	8b\J	8dd\J	.	.	.	.	.	.	.	.	.	.	.
!LO:LB:g=original	!	!	!	!	!	!	!	!	!	!	!	!	!	!	!	!
=10	=10	=10	=10	=10	=10	=10	=10	=10	=10	=10	=10	=10	=10	=10	=10	=10
*	*	*	*	*	*	*	*	*	*	*	*	*	*	*	*2\right	*
8G\L	6 4	2.ryy	.	8cc\L	8ee\L	.	4G\	-bi-	4c\	-bi-	4.g\	-bi-	4.ee\	-bi-	2.cc\	2.ee\
8G\	.	.	.	8cc\	8ee\	.	.	.	.	.	.	.	.	.	.	.
8G\	.	.	.	8cc\	8ee\	.	8G\L	-li-	8c\	-li-	.	.	.	.	.	.
8G\	.	.	.	8cc\	8ee\	.	8G\	-um	8c\	-um	8g\	-li-	8ee\	-li-	.	.
8G\	.	.	.	8cc\	8ee\	.	8G\	et	4c\	.	8g\L	-um	8ee\	-um	.	.
8G\J	.	.	.	8cc\J	8ee\J	.	8G\J	in	.	.	8g\J	et	8ee\	et	.	.
*Xtremolo	*	*	*	*Xtremolo	*	*	*	*	*	*	*	*	*	*	*	*
!	!	!	!	!	!	!	!LO:LB:g=original	!	!LO:LB:g=original	!	!	!	!	!	!	!
=11	=11	=11	=11	=11	=11	=11	=11	=11	=11	=11	=11	=11	=11	=11	=11	=11
4G\	7_ 5_	2.ryy	.	4dd\	4ff\	.	4G\	vi-	4B\	et	4g\	in-	4ff\	in-	4dd\	4ff\
4B\	.	.	.	4dd\	4ff\	.	4B\	-si-	4d\	in	4g\	-vi-	4ff\	-vi-	4dd\	4ff\
4c\	3	.	.	4cc\	4ee\	.	4c\	-bi-	4e\	u-	4g\	-si-	4ee\	-si-	4cc\	4ee\
!	!	!	!	!	!LO:LB:g=original	!	!	!	!	!	!	!	!LO:LB:g=original	!	!	!
=12	=12	=12	=12	=12	=12	=12	=12	=12	=12	=12	=12	=12	=12	=12	=12	=12
!	!	!	!	!	!LO:TX:a:t=P:problem=mixed beam	!	!	!	!	!	!	!	!	!	!	!
4G\	4	2.ryy	.	8.cc\L	8ee\L	.	8G\L	.	8c\	-num	8g\L	-bi-	8ee\	-bi-	4cc\	4ee\
.	.	.	.	.	8dd\	.	8G\J	-li-	8B\	De-	8g\J	-li-	8dd\	-li-	.	.
.	.	.	.	16b\Jk	.	.	.	.	.	.	.	.	.	.	.	.
4GG/	3	.	.	4b\	8dd\	.	4G\	-um	4B\	-um	4g\	-um	4dd\	-um	4g/	4dd\
.	.	.	.	.	8g/	.	.	.	.	.	.	.	.	.	.	.
4r	.	.	.	4r	8b/	.	4r	.	4r	.	4r	.	4r	.	4r	4r
.	.	.	.	.	8dd/J	.	.	.	.	.	.	.	.	.	.	.
!	!	!	!	!	!	!	!	!	!	!	!LO:LB:g=original	!	!	!	!	!LO:LB:g=original
=13	=13	=13	=13	=13	=13	=13	=13	=13	=13	=13	=13	=13	=13	=13	=13	=13
!	!	!	!	!	!	!	!LO:TX:a:t=12	!	!	!	!	!	!	!	!	!
!	!	!	!	!	!	!	!LO:N:vis=00	!	!	!	!	!	!	!	!	!
8G\L	5 3	2.ryy	.	2b\	2gg\	.	0.r	.	2d\	et	2b\	et	2gg\	et	2g/	2dd\
8G\	.	.	.	.	.	.	.	.	.	.	.	.	.	.	.	.
8G\	.	.	.	.	.	.	.	.	.	.	.	.	.	.	.	.
8G\	.	.	.	.	.	.	.	.	.	.	.	.	.	.	.	.
8G\	.	.	.	4b\	4dd\	.	.	.	4d\	in	4b\	in	4dd\	in	4g/	4dd\
8G\J	.	.	.	.	.	.	.	.	.	.	.	.	.	.	.	.
=14	=14	=14	=14	=14	=14	=14	=14	=14	=14	=14	=14	=14	=14	=14	=14	=14
*tremolo	*	*	*	*	*	*	*	*	*	*	*	*	*	*	*	*
8G\L	5 3	2.ryy	.	4g/	4.b\	.	.	.	2d\	u-	4g\	u-	4.b\	u-	4g/	4dd\
8G\	.	.	.	.	.	.	.	.	.	.	.	.	.	.	.	.
8G\	.	.	.	4r	.	.	.	.	.	.	4a\	.	.	.	4r	4r
8G\	.	.	.	.	8cc\	.	.	.	.	.	.	.	8cc\	.	.	.
8G\	.	.	.	4b\	4dd\	.	.	.	4d\	-num	4b\	-num	4dd\	-num	4r	4r
8G\J	.	.	.	.	.	.	.	.	.	.	.	.	.	.	.	.
!	!	!	!	!LO:LB:g=original	!	!	!	!	!	!	!	!	!	!	!	!
=15	=15	=15	=15	=15	=15	=15	=15	=15	=15	=15	=15	=15	=15	=15	=15	=15
!	!	!	!	!	!	!	!	!	!	!	!	!	!	!	!LO:TX:a:t=5.	!LO:TX:a:t=5
.	.	.	.	.	8qdd/	.	.	.	.	.	8qb/	.	.	.	.	.
!	!	!	!	!	!	!	!	!	!	!	!	!	!	!	!LO:N:vis=00	!LO:N:vis=00
4C/	6	2.ryy	.	4a/	4cc\	.	.	.	4e\	Do-	4a\	Do-	4cc\	Do-	0.r	0.r
4D/	4	.	.	4g/	4b\	.	.	.	4d\	-mi-	4g\	-mi-	4b\	-mi-	.	.
4D/	#	.	.	4f#X/	4a\	.	.	.	4c\	-num	4f#X\	-num	4a\	-num	.	.
=16	=16	=16	=16	=16	=16	=16	=16	=16	=16	=16	=16	=16	=16	=16	=16	=16
8G\L	5 3	2.ryy	.	4g/	4.b\	.	.	.	2d\	Je-	4.g\	Je-	4.b\	Je-	.	.
8G\	.	.	.	.	.	.	.	.	.	.	.	.	.	.	.	.
8G\	.	.	.	4r	.	.	.	.	.	.	.	.	.	.	.	.
8G\	.	.	.	.	8cc\	.	.	.	.	.	8a\	.	8cc\	.	.	.
8G\	.	.	.	4b\	4dd\	.	.	.	4d\	-sum	4b\	-sum	4dd\	-sum	.	.
8G\J	.	.	.	.	.	.	.	.	.	.	.	.	.	.	.	.
*Xtremolo	*	*	*	*	*	*	*	*	*	*	*	*	*	*	*	*
=17	=17	=17	=17	=17	=17	=17	=17	=17	=17	=17	=17	=17	=17	=17	=17	=17
.	.	.	.	.	8qdd/	.	.	.	.	.	8qqa/	.	.	.	.	.
!	!	!	!	!	!	!	!LO:N:vis=00	!	!	!	!	!	!	!	!	!
4C/	6	2.ryy	.	4a/	4cc\	.	0.r	.	4e\	Chri-	4a\	Chri-	4cc\	Chri-	.	.
4D/	4	.	.	4g/	4b\	.	.	.	4d\	.	4g\	.	4b\	.	.	.
4D/	#	.	.	4f#X/	4a\	.	.	.	4c\	-stum	4f#X\	-stum	4a\	-stum	.	.
=18	=18	=18	=18	=18	=18	=18	=18	=18	=18	=18	=18	=18	=18	=18	=18	=18
8G\L	n	2.ryy	.	4g/	4.b\	.	.	.	4.d\	Fi-	4.g\	Fi-	4.b\	Fi-	.	.
8G\	.	.	.	.	.	.	.	.	.	.	.	.	.	.	.	.
8G\	.	.	.	4r	.	.	.	.	.	.	.	.	.	.	.	.
8G\	.	.	.	.	8cc\	.	.	.	8d\	-li-	8a\	-li-	8cc\	-li-	.	.
8G\	.	.	.	4b\	4dd\	.	.	.	4d\	-um	4b\	-um	4dd\	-um	.	.
8G\J	.	.	.	.	.	.	.	.	.	.	.	.	.	.	.	.
!	!	!	!	!	!	!	!	!	!	!	!	!	!	!	!LO:LB:g=original	!
=19	=19	=19	=19	=19	=19	=19	=19	=19	=19	=19	=19	=19	=19	=19	=19	=19
.	.	.	.	.	8qdd/	.	.	.	.	.	8qqa/	.	.	.	.	.
4C/	6	2.ryy	.	4a/	4cc\	.	.	.	4e\	De-	4a\	De-	4.cc\	De-	2.r	2.r
4D/	4	.	.	4g/	4b\	.	.	.	4d\	-i	4g\	-i	.	.	.	.
.	.	.	.	.	.	.	.	.	.	.	.	.	8b\	-i	.	.
!	!	!	!	!	!	!	!	!	!	!	!	!	!LO:TX:a:t=P:problem=niejednoznacze podłożenie tekstu	!	!	!
4D/	#	.	.	4f#X/	4a\	.	.	.	8d\	u-	8f#X\L	u-	4a\	uni-	.	.
.	.	.	.	.	.	.	.	.	8d\	-ni-	8f#\J	-ni-	.	.	.	.
=20	=20	=20	=20	=20	=20	=20	=20	=20	=20	=20	=20	=20	=20	=20	=20	=20
4G\	.	2.ryy	.	4d/	8b\L	.	.	.	8d\	-ge-	8g\L	-ge-	8b\L	-ge-	4g/	4dd\
.	.	.	.	.	8gg\J	.	.	.	8d\	-nitum	8g\J	-ni-	8b\J	-ni-	.	.
!	!	!	!	!	!	!	!	!	!LO:LB:g=original	!	!LO:SIC:v:s=4f#	!	!	!	!	!
4D\	#	.	.	4a/	4ff#X 4a 4d/	.	.	.	4d\	.	4f\	-tum	4a\	-tum	4dd\	4dd\
4r	.	.	.	4r	4r	.	.	.	4r	.	4r	.	4r	.	4r	4r
!LO:LB:g=original	!	!	!	!	!	!	!	!	!	!	!	!	!	!	!	!
=21	=21	=21	=21	=21	=21	=21	=21	=21	=21	=21	=21	=21	=21	=21	=21	=21
!	!	!LO:TX:b:t=Solo.	!	!	!	!	!	!	!LO:TX:a:t=4	!	!LO:TX:a:t=4	!	!LO:TX:a:t=4	!	!LO:TX:a:t=8.	!LO:TX:a:t=8
!	!	!	!	!	!	!	!LO:N:vis=00	!	!LO:N:vis=00	!	!LO:N:vis=00	!	!LO:N:vis=00	!	!LO:N:vis=00	!LO:N:vis=00
*	*	*	*	*	*	*below	*	*	*	*	*	*	*	*	*	*
8F#X\L	.	4dd\	.	4d/	4a/	p	0.r	.	0.r	.	0.r	.	0.r	.	0.r	0.r
8d\	.	.	.	.	.	.	.	.	.	.	.	.	.	.	.	.
8F#\	.	8a\L	.	4d/	4a/	.	.	.	.	.	.	.	.	.	.	.
8d\	.	8b\	.	.	.	.	.	.	.	.	.	.	.	.	.	.
8F#\	.	8cc\	.	4d/	4a/	.	.	.	.	.	.	.	.	.	.	.
8d\J	.	8a\J	.	.	.	.	.	.	.	.	.	.	.	.	.	.
=22	=22	=22	=22	=22	=22	=22	=22	=22	=22	=22	=22	=22	=22	=22	=22	=22
8G\L	.	8b\L	.	4d/	4b/	.	.	.	.	.	.	.	.	.	.	.
8d\	.	8g\J	.	.	.	.	.	.	.	.	.	.	.	.	.	.
*	*	*2\right	*	*	*	*	*	*	*	*	*	*	*	*	*	*
!LO:SIC:v:s=8F#	!	!	!	!	!	!	!	!	!	!	!	!	!	!	!	!
8F\	.	2aT\	.	4d/	4a/	.	.	.	.	.	.	.	.	.	.	.
8d\	.	.	.	.	.	.	.	.	.	.	.	.	.	.	.	.
!LO:SIC:v:s=8F#	!	!	!	!	!	!	!	!	!	!	!	!	!	!	!	!
8F\	.	.	.	4d/	4a/	.	.	.	.	.	.	.	.	.	.	.
8d\J	.	.	.	.	.	.	.	.	.	.	.	.	.	.	.	.
=23	=23	=23	=23	=23	=23	=23	=23	=23	=23	=23	=23	=23	=23	=23	=23	=23
!LO:SIC:v:s=8F#	!	!	!	!	!	!	!	!	!	!	!	!	!	!	!	!
8F\L	.	4dd\	.	4d/	4a/	.	.	.	.	.	.	.	.	.	.	.
8d\	.	.	.	.	.	.	.	.	.	.	.	.	.	.	.	.
!LO:SIC:v:s=8F#	!	!	!	!	!	!	!	!	!	!	!	!	!	!	!	!
8F\	.	8aa\L	.	4d/	4a/	.	.	.	.	.	.	.	.	.	.	.
8d\	.	8ff#X\	.	.	.	.	.	.	.	.	.	.	.	.	.	.
!LO:SIC:v:s=8F#	!	!	!	!	!	!	!	!	!	!	!	!	!	!	!	!
8F\	.	8dd\	.	4d/	4a/	.	.	.	.	.	.	.	.	.	.	.
8d\J	.	8cc\J	.	.	.	.	.	.	.	.	.	.	.	.	.	.
=24	=24	=24	=24	=24	=24	=24	=24	=24	=24	=24	=24	=24	=24	=24	=24	=24
8G\L	.	8b\L	.	4d/	4b/	.	.	.	.	.	.	.	.	.	.	.
8d\	.	8dd\J	.	.	.	.	.	.	.	.	.	.	.	.	.	.
8F\	.	2aT\	.	4d/	4a/	.	.	.	.	.	.	.	.	.	.	.
8d\	.	.	.	.	.	.	.	.	.	.	.	.	.	.	.	.
8F\	.	.	.	4d/	4a/	.	.	.	.	.	.	.	.	.	.	.
8d\J	.	.	.	.	.	.	.	.	.	.	.	.	.	.	.	.
=25	=25	=25	=25	=25	=25	=25	=25	=25	=25	=25	=25	=25	=25	=25	=25	=25
!	!	!	!	!	!	!	!	!	!	!	!	!	!	!	!LO:N:vis=00	!LO:N:vis=00
4G\	.	2.ryy	.	4B/	4g/	.	4G\	Et	2B\	et	2d\	et	4g\	et	0.r	0.r
!LO:TX:a:t=Tutti.	!	!	!	!	!	!	!	!	!	!	!	!	!	!	!	!
4B\	.	.	.	4B/	4g/	.	4B\	.	.	.	.	.	4g\	ex	.	.
4d\	.	.	.	4d/	4a/	.	4d\	ex	4d\	ex	4d\	ex	4a\	.	.	.
!	!	!	!	!	!LO:LB:g=original	!	!	!	!	!	!	!	!	!	!	!
=26	=26	=26	=26	=26	=26	=26	=26	=26	=26	=26	=26	=26	=26	=26	=26	=26
2G\	.	2.ryy	.	4.g/	4.b\	.	2G\	Pa-	2d\	Pa-	4.g\	Pa-	4.b\	Pa-	.	.
.	.	.	.	8a/	8cc\	.	.	.	.	.	8a\	.	8cc\	.	.	.
4GG/	.	.	.	4b/	4dd\	.	4G\	-tre	4d\	-tre	4b\	-tre	4dd\	-tre	.	.
!	!	!	!	!	!	!	!	!	!	!	!	!	!LO:LB:g=original	!	!	!
=27	=27	=27	=27	=27	=27	=27	=27	=27	=27	=27	=27	=27	=27	=27	=27	=27
4G\	.	2.ryy	.	4B/	4g/	.	4G\	na-	4B\	Fi-	4d\	na-	4g\	na-	.	.
4B\	.	.	.	4B/	4g/	.	4B\	.	4B\	-li-	4d\	-tum	4g\	-tum	.	.
4d\	.	.	.	4d/	4a/	.	4d\	-tum	4d\	-o	4d\	et	4a\	.	.	.
!	!	!	!	!	!	!	!	!	!	!	!LO:LB:g=original	!	!	!	!	!
=28	=28	=28	=28	=28	=28	=28	=28	=28	=28	=28	=28	=28	=28	=28	=28	=28
2G\	.	2.ryy	.	4.g/	4.b\	.	2G\	Pa-	2d\	na-	4.g\	ex	4.b\	an-	.	.
.	.	.	.	8a/	8cc\	.	.	.	.	.	8a\	Pa-	8cc\	-te	.	.
4GG/	.	.	.	4b/	4dd\	.	4G\	-tre	4d\	-tum	4b\	-tre	4dd\	o-	.	.
=29	=29	=29	=29	=29	=29	=29	=29	=29	=29	=29	=29	=29	=29	=29	=29	=29
4c\	.	2.ryy	.	4g/	4ee\	.	4c\	na-	4c\	an-	4g\	na-	4ee\	-mni-	4cc\	4ee\
4G\	.	.	.	4b/	8dd\L	.	4G\	-tum	4B\	-te	4g\	-tum	4dd\	-a	4g/	4dd\
.	.	.	.	.	8gg\	.	.	.	.	.	.	.	.	.	.	.
4r	.	.	.	4r	8b\	.	4r	.	4r	.	4r	.	4r	.	4r	4r
.	.	.	.	.	8dd\J	.	.	.	.	.	.	.	.	.	.	.
=30	=30	=30	=30	=30	=30	=30	=30	=30	=30	=30	=30	=30	=30	=30	=30	=30
4D\	7 #	2.ryy	.	4a/	4cc\	.	8D\L	Om-	8A\	o-	8f#X\L	O-	8cc\	ſe-	4dd\	4dd\
.	.	.	.	.	.	.	8D\J	-ni-	8A\	-mni-	8f#\J	-mni-	8cc\	-cu-	.	.
4G\	.	.	.	4g/	8b\L	.	4G\	-a	4d\	-a	4g\	-a	4b\	-la	4g/	4dd\
.	.	.	.	.	8g\	.	.	.	.	.	.	.	.	.	.	.
4r	.	.	.	4r	8b\	.	4r	.	4r	.	4r	.	4r	.	4r	4r
.	.	.	.	.	8dd\J	.	.	.	.	.	.	.	.	.	.	.
!LO:LB:g=original	!	!LO:LB:g=original	!	!LO:LB:g=original	!	!	!	!	!	!	!	!	!	!	!	!
=31	=31	=31	=31	=31	=31	=31	=31	=31	=31	=31	=31	=31	=31	=31	=31	=31
!LO:TX:a:t=2	!	!	!	!	!	!	!LO:TX:a:t=2	!	!LO:TX:a:t=2	!	!LO:TX:a:t=2	!	!LO:TX:a:t=2	!	!LO:TX:a:t=2	!LO:TX:a:t=2
!LO:N:vis=0	!	!	!	!	!	!	!LO:N:vis=0	!	!LO:N:vis=0	!	!LO:N:vis=0	!	!LO:N:vis=0	!	!LO:N:vis=0	!LO:N:vis=0
1.r	.	2.ryy	.	8g/L	8gg'\L	.	1.r	.	1.r	.	1.r	.	1.r	.	1.r	1.r
.	.	.	.	8f#X/	8ff#X'\	.	.	.	.	.	.	.	.	.	.	.
.	.	.	.	8e/	8ee'\	.	.	.	.	.	.	.	.	.	.	.
.	.	.	.	8d/	8dd'\	.	.	.	.	.	.	.	.	.	.	.
.	.	.	.	8c/	8cc'\	.	.	.	.	.	.	.	.	.	.	.
.	.	.	.	8B/J	8b'\J	.	.	.	.	.	.	.	.	.	.	.
=32	=32	=32	=32	=32	=32	=32	=32	=32	=32	=32	=32	=32	=32	=32	=32	=32
.	.	2.ryy	.	8e/L	8ee'\L	.	.	.	.	.	.	.	.	.	.	.
.	.	.	.	8d/	8dd'\	.	.	.	.	.	.	.	.	.	.	.
.	.	.	.	8c/	8cc'\	.	.	.	.	.	.	.	.	.	.	.
.	.	.	.	8B/	8b'\	.	.	.	.	.	.	.	.	.	.	.
.	.	.	.	8A/	8a'\	.	.	.	.	.	.	.	.	.	.	.
.	.	.	.	8G/J	8g'\J	.	.	.	.	.	.	.	.	.	.	.
=33	=33	=33	=33	=33	=33	=33	=33	=33	=33	=33	=33	=33	=33	=33	=33	=33
!	!	!	!	!	!	!	!	!	!LO:SIC:v:l:s=sae-	!	!	!	!	!	!	!
4C/	.	2.ryy	.	4a/	8cc\L	.	4C/	ſe-	4e\	se-	4a\	Sae-	4cc\	o-	4r	4r
.	.	.	.	.	8aa\	.	.	.	.	.	.	.	.	.	.	.
4D/	4	.	.	4g/	8b\	.	4D/	.	4d\	.	4g\	.	4b\	-mni-	4dd\	4dd\
.	.	.	.	.	8gg\	.	.	.	.	.	.	.	.	.	.	.
4C/	#	.	.	4f#X/	8a\	.	4D/	-cu-	4d\	-cu-	4f#X\	-cu-	4a\	.	4dd\	4dd\
.	.	.	.	.	8ff#X\J	.	.	.	.	.	.	.	.	.	.	.
!	!	!	!	!	!	!	!LO:LB:g=original	!	!	!	!	!	!	!	!	!
=34	=34	=34	=34	=34	=34	=34	=34	=34	=34	=34	=34	=34	=34	=34	=34	=34
4GG/	.	2.ryy	.	4b 4d/	4gg 4b 4d 4G/	.	4G\	-la	4B\	-la	4d\	-la	4g\	-a	4g/	4dd\
8G\L|	.	.	.	8g/L	8g/L	.	4r	.	4r	.	4r	.	4r	.	4r	4r
8F#X\|	.	.	.	8f#X/	8f#X/	.	.	.	.	.	.	.	.	.	.	.
8G\|	.	.	.	8g/	8g/	.	4r	.	4r	.	4r	.	4r	.	4r	4r
8A\J|	.	.	.	8a/J	8a/J	.	.	.	.	.	.	.	.	.	.	.
=35	=35	=35	=35	=35	=35	=35	=35	=35	=35	=35	=35	=35	=35	=35	=35	=35
!	!	!	!	!	!	!	!LO:TX:a:t=1	!	!LO:TX:a:t=1	!	!LO:TX:a:t=1	!	!LO:TX:a:t=1	!	!LO:TX:a:t=55.	!LO:TX:a:t=55.
!	!	!	!	!	!	!	!	!	!	!	!	!	!	!	!LO:N:vis=00	!LO:N:vis=00
4B\	.	2.ryy	.	4b\	4b\	.	2.r	.	2.r	.	2.r	.	2.r	.	0.r	0.r
4D#X\|	.	.	.	4d#X/	4d#X/	.	.	.	.	.	.	.	.	.	.	.
4D#L\|	.	.	.	4d#/	4d#/	.	.	.	.	.	.	.	.	.	.	.
!	!	!	!	!	!	!	!	!	!LO:LB:g=original	!	!	!	!	!	!	!
=36	=36	=36	=36	=36	=36	=36	=36	=36	=36	=36	=36	=36	=36	=36	=36	=36
4E\	n	2.ryy	.	4ee 4b 4e/	4ee 4b 4e/	.	4E\	De-	4B\	De-	4g\	De-	4ee\	De-	.	.
4G\	6	.	.	4e/	4ee\	.	4G\	-um	4B\	-um	4g\	-um	4ee\	-um	.	.
4E\	.	.	.	4g/	4b\	.	4E\	de	4B\	de	4g\	de	4b\	de	.	.
!	!	!	!	!	!LO:LB:g=original	!	!	!	!	!	!	!	!	!	!	!
=37	=37	=37	=37	=37	=37	=37	=37	=37	=37	=37	=37	=37	=37	=37	=37	=37
4A\	.	2.ryy	.	4e/	4cc\	.	4A\	De-	4e\	De-	4a\	De-	4cc\	De-	.	.
4E\	.	.	.	8g/L	(8a\L	.	4E\	-o	4e\	-o	4g\	-o	4b\	-o	.	.
.	.	.	.	8g/	8ee\	.	.	.	.	.	.	.	.	.	.	.
4r	.	.	.	8a/	8ff#X\	.	4r	.	4r	.	4r	.	4r	.	.	.
.	.	.	.	8f#X/J	8dd#X\J)	.	.	.	.	.	.	.	.	.	.	.
=38	=38	=38	=38	=38	=38	=38	=38	=38	=38	=38	=38	=38	=38	=38	=38	=38
4E\	.	2.ryy	.	4g/	4ee\	.	4E\	lu-	4B\	lu-	4g\	lu-	4ee\	lu-	.	.
4G\	6	.	.	4b/	4ee\	.	4G\	-men	4B\	-men	4g\	-men	4ee\	-men	.	.
4E\	.	.	.	4g/	4b\	.	4E\	de	4B\	de	4g\	de	4b\	de	.	.
=39	=39	=39	=39	=39	=39	=39	=39	=39	=39	=39	=39	=39	=39	=39	=39	=39
!	!	!	!	!	!	!	!	!	!	!	!	!	!	!	!LO:N:vis=00	!LO:N:vis=00
4BB/	7 #	2.ryy	.	4f#X/	4a/	.	8B\L	lu-	8d#X\	lu-	8f#X\	lu-	8a\L	lu-	0.r	0.r
.	.	.	.	.	.	.	8B\J	-mi-	8d#\	-mi-	8f#\	-mi-	8a\J	-mi-	.	.
4E/	n	.	.	4e/	8g/L	.	4E\	-ne	4B\	-ne	4e\	-ne	4g\	-ne	.	.
.	.	.	.	.	8e/	.	.	.	.	.	.	.	.	.	.	.
4r	.	.	.	4r	8g/	.	4r	.	4r	.	4r	.	4r	.	.	.
.	.	.	.	.	8b/J	.	.	.	.	.	.	.	.	.	.	.
!	!	!	!	!	!	!	!	!	!	!	!	!	!LO:LB:g=original	!	!	!
=40	=40	=40	=40	=40	=40	=40	=40	=40	=40	=40	=40	=40	=40	=40	=40	=40
!	!	!	!	!	!	!	!	!	!	!	!LO:SIC:v:s=4f#	!	!	!	!	!
4A\	6\ +4r 2	2.ryy	.	4f#X/	4dd#X\	.	4A\	De-	4B\	De-	4f\	De-	4dd#X\	De-	.	.
2G\	-3	.	.	4b/	4ee\	.	4G\	.	4e\	.	4b\	.	4ee\	.	.	.
.	.	.	.	4d/	4b\	.	4G\	-um	4B\	-um	4e\	-um	4b\	-um	.	.
!	!	!	!	!	!	!	!	!	!	!	!LO:LB:g=original	!	!	!	!	!
=41	=41	=41	=41	=41	=41	=41	=41	=41	=41	=41	=41	=41	=41	=41	=41	=41
2F#X\	6\ 4	2.ryy	.	4c#X/	4b\	.	2F#X\	ve-	4B\	ve-	4c#X\	ve-	4b\	ve-	.	.
.	.	.	.	4d#X/	4a\	.	.	.	4B\	.	4d#X\	.	4a\	.	.	.
4E\	n3r	.	.	4B/	4g\	.	4E\	-rum	4B\	-rum	4e\	-rum	4g\	-rum	.	.
=42	=42	=42	=42	=42	=42	=42	=42	=42	=42	=42	=42	=42	=42	=42	=42	=42
!	!	!	!	!	!	!	!	!	!	!	!LO:SIC:v:s=4f#	!	!	!	!	!
4A\	6\ +4r 2	2.ryy	.	4f#X/	4dd#X\	.	4A\	de	4B\	de	4f\	de	4dd#X\	de	.	.
2G\	-5r	.	.	4b/	4ee\	.	4G\	De-	4e\	De-	4b\	De-	4ee\	De-	.	.
.	.	.	.	4e/	4b\	.	4G\	-o	4B\	-o	4e\	-o	4b\	-o	.	.
!LO:LB:g=original	!	!	!	!LO:LB:g=original	!	!	!	!	!	!	!	!	!	!	!	!
=43	=43	=43	=43	=43	=43	=43	=43	=43	=43	=43	=43	=43	=43	=43	=43	=43
!	!	!	!	!	!	!	!	!	!	!	!	!	!	!	!LO:N:vis=00	!LO:N:vis=00
2F#X\	6\ 4	2.ryy	.	4c#X/	4b\	.	2F#X\	ve-	4B\	ve-	4c#X\	ve-	4b\	ve-	0.r	0.r
.	x 3	.	.	4d#X/	4a\	.	.	.	4B\	-ro	4d#X\	.	4a\	-ro	.	.
4E\	n	.	.	4B/	4g\	.	4E\	-ro	4B\	ge-	4e\	-ro	4g\	.	.	.
=44	=44	=44	=44	=44	=44	=44	=44	=44	=44	=44	=44	=44	=44	=44	=44	=44
2BB/	7	2.ryy	.	8d#X/L	8f#X/L	.	8BB/L	ge-	8B\	-ni-	8d#X\L	ge-	8f#X/L	ge-	.	.
.	.	.	.	8e/J	8g/J	.	8BB/J	-ni-	8B\	-tum	8e\J	-ni-	8g/J	-ni-	.	.
.	6\ 5	.	.	4f#X/	4a/	.	4B\	-tum	4B\	non	4f#X\	-tum	4a\	-tum	.	.
4AA#X/	7	.	.	4e/	4g/	.	4A#X\	non	4c#X\	.	4e\	non	4g\	non	.	.
!	!	!	!	!	!	!	!LO:LB:g=original	!	!LO:LB:g=original	!	!	!	!	!	!	!
=45	=45	=45	=45	=45	=45	=45	=45	=45	=45	=45	=45	=45	=45	=45	=45	=45
4BB/	6 4	2.ryy	.	4e/	4g/	.	4B\	fa-	4B\	fa-	4e\	fa-	4g/	fa-	.	.
!	!	!	!	!	!	!	!	!	!	!	!	!	!LO:SIC:v:s=4f#	!	!	!
4BB/	7 #	.	.	4d#X/	8f#X/L	.	4BB/	-ctum	4B\	-ctum	4d#X\	-ctum	4f/	-ctum	.	.
.	.	.	.	.	8B/	.	.	.	.	.	.	.	.	.	.	.
4r	.	.	.	4r	8d#X/	.	4r	.	4r	.	4r	.	4r	.	.	.
.	.	.	.	.	8f#/J	.	.	.	.	.	.	.	.	.	.	.
=46	=46	=46	=46	=46	=46	=46	=46	=46	=46	=46	=46	=46	=46	=46	=46	=46
4BB/	#	2.ryy	.	2d#X/	2b\	.	2BB/	Con-	2F#X/	con-	2d#X\	con-	2b\	con-	.	.
4BB/	.	.	.	.	.	.	.	.	.	.	.	.	.	.	.	.
4BB/	.	.	.	8e/L	(8cc#X\L	.	4BB/	-sub-	4F#/	-sub-	4e\	-sub-	8cc#X\L	-sub-	.	.
.	.	.	.	8c#X/J	8a#X\J)	.	.	.	.	.	.	.	8a#X\J	.	.	.
=47	=47	=47	=47	=47	=47	=47	=47	=47	=47	=47	=47	=47	=47	=47	=47	=47
!	!	!	!	!	!	!	!	!	!LO:SIC:v:s=2F#	!	!LO:SIC:v:s=2d#	!	!	!	!LO:N:vis=00	!LO:N:vis=00
4BB/	.	2.ryy	.	4d#X/	4b\	.	2BB/	-ſtan-	2F/	-stan-	2d\	-stan-	4b\	-stan-	0.r	0.r
4BB/	.	.	.	4f#X/	4dd#X\	.	.	.	.	.	.	.	4dd#X\	.	.	.
4BB/	.	.	.	4d#/	4f#X/	.	4BB/	-ti-	4F/	-ti-	4e\	-ti-	4f#X/	-ti-	.	.
=48	=48	=48	=48	=48	=48	=48	=48	=48	=48	=48	=48	=48	=48	=48	=48	=48
!	!	!	!	!	!	!	!	!	!	!	!LO:SIC:v:s=2d#	!	!	!	!	!
4BB/	.	2.ryy	.	2d#X/	2b\	.	2BB/	-a-	2F/	-a-	2d\	-a-	2b\	-a-	.	.
4BB/	.	.	.	.	.	.	.	.	.	.	.	.	.	.	.	.
4BB/	.	.	.	8e/L	(8cc#X\L	.	4BB/	-lem	4F/	-lem	4e\	-lem	8cc#X\L	-lem	.	.
.	.	.	.	8c#X/J	8a#X\J)	.	.	.	.	.	.	.	8a#X\J	.	.	.
!	!	!	!	!	!LO:LB:g=original	!	!	!	!	!	!	!	!	!	!	!
=49	=49	=49	=49	=49	=49	=49	=49	=49	=49	=49	=49	=49	=49	=49	=49	=49
!	!	!	!	!	!	!	!	!	!	!	!LO:SIC:v:s=2d#	!	!	!	!	!
4BB/	.	2.ryy	.	4d#X/	4b\	.	2BB/	Pa-	2F/	Pa-	2d\	Pa-	4b\	Pa-	.	.
4BB/	.	.	.	4f#X/	4dd#X\	.	.	.	.	.	.	.	4dd#X\	.	.	.
!	!	!	!	!	!	!	!	!	!LO:SIC:v:l:s=-tri	!	!LO:SIC:v:l:s=-tri	!	!LO:SIC:v:l:s=-tri	!	!	!
4BB/	.	.	.	4d#/	4f#X/	.	4BB/	-tri	4F/	-tris	4e\	-tri	4f#X/	-tris	.	.
=50	=50	=50	=50	=50	=50	=50	=50	=50	=50	=50	=50	=50	=50	=50	=50	=50
!	!	!	!	!	!	!	!	!	!	!	!LO:SIC:v:s=2d#	!	!	!	!	!
4BB/	.	2.ryy	.	2d#X/	2b\	.	2BB/	per	2F/	per	2d\	per	2b\	per	.	.
4BB/	.	.	.	.	.	.	.	.	.	.	.	.	.	.	.	.
!	!	!	!	!	!	!	!LO:SIC:v:l:s=quem	!	!	!	!	!	!	!	!	!
4BB/	.	.	.	8e/L	(8cc#X\L	.	4BB/	que	4F/	quem	4e\	quem	8cc#X\L	quem	.	.
.	.	.	.	8c#X/J	8a#X\J)	.	.	.	.	.	.	.	8a#X\J	.	.	.
!	!	!	!	!	!	!	!	!	!	!	!	!	!LO:LB:g=original	!	!	!
=51	=51	=51	=51	=51	=51	=51	=51	=51	=51	=51	=51	=51	=51	=51	=51	=51
!	!	!	!	!	!	!	!	!	!LO:SIC:v:s=4F#	!	!	!	!	!	!LO:N:vis=00	!LO:N:vis=00
4BB/	.	2.ryy	.	4d#X/	4b\	.	4BB/	o-	4F/	o-	4d#X\	o-	4b\	o-	0.r	0.r
!	!	!	!	!	!	!	!	!	!LO:SIC:v:s=4B	!	!	!	!	!	!	!
4BB/	.	.	.	4f#X/	4dd#X\	.	4BB/	-mni-	4c\	-mni-	4f#X\	-mni-	4dd#X\	-mni-	.	.
!	!	!	!	!	!	!	!	!	!	!	!	!	!LO:SIC:v:s=4ff#	!	!	!
4BB/	.	.	.	4dd#X\	4ff#X\	.	4BB/	-a	4d#X\	-a	4d#\	-a	4ff\	-a	.	.
=52	=52	=52	=52	=52	=52	=52	=52	=52	=52	=52	=52	=52	=52	=52	=52	=52
!	!	!	!	!	!	!	!	!	!	!	!LO:SIC:v:s=2d#	!	!	!	!	!
4BB/	.	2.ryy	.	2d#X/	2b\	.	2BB/	fa-	2F#X/	fa-	2d\	fa-	2b\	fa-	.	.
4BB/	.	.	.	.	.	.	.	.	.	.	.	.	.	.	.	.
4BB/	.	.	.	8e/L	(8cc#X\L	.	4BB/	-cta	4F#/	-cta	4e\	-cta	8cc#X\L	-cta	.	.
.	.	.	.	8c#X/J	8a#X\J)	.	.	.	.	.	.	.	8a#X\J	.	.	.
=53	=53	=53	=53	=53	=53	=53	=53	=53	=53	=53	=53	=53	=53	=53	=53	=53
!	!	!	!	!	!	!	!	!	!	!	!LO:SIC:v:s=4d#	!	!	!	!	!
4BB/	.	2.ryy	.	4d#X/	4b\	.	4BB/	ſunt	4F/	sunt	4d\	sunt	4b\	ſunt	.	.
8B\L|	.	.	.	4d#/	4B/	.	4r	.	4r	.	4r	.	4r	.	.	.
8A\|	.	.	.	.	.	.	.	.	.	.	.	.	.	.	.	.
8G\|	.	.	.	4r	4r	.	4r	.	4r	.	4r	.	4r	.	.	.
8F#X\J|	.	.	.	.	.	.	.	.	.	.	.	.	.	.	.	.
!	!	!	!	!	!	!	!	!	!	!	!LO:LB:g=original	!	!	!	!	!
=54	=54	=54	=54	=54	=54	=54	=54	=54	=54	=54	=54	=54	=54	=54	=54	=54
4E\	n	2.ryy	.	2g/	2ee\	.	2.E\	qui	2.B\	qui	2g\	qui	2ee\	qui	.	.
!LO:TX:a:t=1	!	!	!	!	!	!	!	!	!	!	!	!	!	!	!	!
4E\	.	.	.	.	.	.	.	.	.	.	.	.	.	.	.	.
4E\	.	.	.	8a/L	(8ff#X\L	.	.	.	.	.	8a\L	pro-	8ff#X\L	pro-	.	.
!	!	!	!	!	!	!	!	!	!LO:TX:a:t=P:problem=podwójna kreska	!	!	!	!	!	!	!
.	.	.	.	8f#X/J	8dd#X\J)	.	.	.	.	.	8f#X\J	.	8dd#X\J	.	.	.
!LO:LB:g=original	!	!	!	!	!	!	!	!	!	!	!	!	!	!	!	!
=55	=55	=55	=55	=55	=55	=55	=55	=55	=55	=55	=55	=55	=55	=55	=55	=55
!	!	!	!	!	!	!	!	!	!	!	!	!	!	!	!LO:N:vis=00	!LO:N:vis=00
4E\	.	2.ryy	.	4g/	4ee\	.	4E\	pro-	4B\	pro-	4g\	-pter	4ee\	-pter	0.r	0.r
!LO:TX:a:t=2	!	!	!	!	!	!	!	!	!	!	!	!	!	!	!	!
4E\	.	.	.	4b/	4gg\	.	4E\	-pter	4B\	-pter	4b\	.	4gg\	.	.	.
4E\	.	.	.	4g/	4b\	.	4E\	nos	4B\	noſ	4g\	nos	4b\	nos	.	.
!	!	!	!	!LO:LB:g=original	!	!	!	!	!LO:LB:g=original	!	!	!	!	!	!	!
=56	=56	=56	=56	=56	=56	=56	=56	=56	=56	=56	=56	=56	=56	=56	=56	=56
4E\	.	2.ryy	.	2g/	2ee\	.	2E\	ho-	2B\	ho-	2g\	ho-	2ee\	ho-	.	.
!LO:TX:a:t=3	!	!	!	!	!	!	!	!	!	!	!	!	!	!	!	!
4E\	.	.	.	.	.	.	.	.	.	.	.	.	.	.	.	.
4E\	.	.	.	8a/L	8ff#X\L	.	4E\	-mi-	4B\	-mi-	8a\L	-mi-	8ff#X\L	-mi-	.	.
!	!	!	!	!	!	!	!	!	!	!	!LO:SIC:v:l:s=-nes	!	!	!	!	!
.	.	.	.	8f#X/J	8dd#X\J	.	.	.	.	.	8f#X\J	.	8dd#X\J	-nes	.	.
!	!	!	!	!	!	!	!LO:LB:g=original	!	!	!	!	!	!	!	!	!
=57	=57	=57	=57	=57	=57	=57	=57	=57	=57	=57	=57	=57	=57	=57	=57	=57
4E\	.	2.ryy	.	4g/	4ee\	.	2E\	-nes	2B\	-nes	4g\	et	4ee\	et	.	.
!LO:TX:a:t=4	!	!	!	!	!	!	!	!	!	!	!	!	!	!	!	!
4E\	.	.	.	4b/	4gg\	.	.	.	.	.	4b\	pro-	4gg\	pro-	.	.
4E\	.	.	.	4g/	4b\	.	4E\	et	4B\	et	4g\	-pter	4b\	-pter	.	.
=58	=58	=58	=58	=58	=58	=58	=58	=58	=58	=58	=58	=58	=58	=58	=58	=58
4E\	.	2.ryy	.	2g/	2ee\	.	2E\	pro-	2B\	pro-	2g\	no-	2ee\	no-	.	.
!LO:TX:a:t=5	!	!	!	!	!	!	!	!	!	!	!	!	!	!	!	!
4E\	.	.	.	.	.	.	.	.	.	.	.	.	.	.	.	.
4E\	.	.	.	8a/L	8ff#X\L	.	8E\L	-pter	8B\	-pter	8a\L	-stram	8ff#X\L	-stram	.	.
.	.	.	.	8f#X/J	8dd#X\J	.	8E\J	nos	8B\	et	8f#X\J	.	8dd#X\J	.	.	.
=59	=59	=59	=59	=59	=59	=59	=59	=59	=59	=59	=59	=59	=59	=59	=59	=59
!	!	!	!	!	!	!	!	!	!	!	!	!	!	!	!LO:N:vis=00	!LO:N:vis=00
4E\	.	2.ryy	.	4g\	4ee\	.	2E\	ho-	4B\	pro-	4g\	sa-	4ee\	ſa-	0.r	0.r
!LO:TX:a:t=6	!	!	!	!	!	!	!	!	!	!	!	!	!	!	!	!
4E\	.	.	.	4b\	4gg\	.	.	.	4e\	.	4b\	-lu-	4gg\	-lu-	.	.
4E\	.	.	.	4gg\	4bb\	.	4E\	-mi-	4g\	-pter	4b\	-tem	4bb\	-tem	.	.
=60	=60	=60	=60	=60	=60	=60	=60	=60	=60	=60	=60	=60	=60	=60	=60	=60
2E\	8	2.ryy	.	2g/	4ee\	.	2E\	-nes	2B\	no-	2g\	de-	4ee\	de-	.	.
.	5 3	.	.	.	4b\	.	.	.	.	.	.	.	4b\	-scen-	.	.
4D#X\	7 5	.	.	4a/	4ccn\	.	4D#X\	et	4f#X\	-stram	4a\	-scen-	4cc\	-dit	.	.
=61	=61	=61	=61	=61	=61	=61	=61	=61	=61	=61	=61	=61	=61	=61	=61	=61
!LO:SIC:v:s=4E	!	!	!	!	!	!	!	!	!LO:SIC:v:s=4B	!	!	!	!	!	!	!
4D\	n	2.ryy	.	4g/	4b\	.	4E\	pro-	4c\	ſa-	4g\	-dit	4b\	de	.	.
!	!	!	!	!	!	!	!	!	!LO:SIC:v:s=4d#	!	!	!	!LO:SIC:v:l:s=cae-	!	!	!
4B\	7 #5	.	.	4f#X/	4a\	.	4B\	-pter	4e#X\	-lu-	4f#X\	de	4a\	ce-	.	.
!	!	!	!	!	!	!	!	!	!LO:SIC:v:s=4e	!	!	!	!	!	!	!
4cn\	5 3	.	.	4e/	4g\	.	4c\	no-	4f\	-tem	4e\	.	4g\	-lis	.	.
!	!	!	!	!	!LO:LB:g=original	!	!	!	!	!	!	!	!	!	!	!
=62	=62	=62	=62	=62	=62	=62	=62	=62	=62	=62	=62	=62	=62	=62	=62	=62
!	!	!	!	!LO:SIC:v:s=4f#	!	!	!	!	!	!	!LO:SIC:v:s=4f#	!	!	!	!	!
4A\	8 6	2.ryy	.	4f/	4a/	.	4A\	-stram	4c\	de-	4f\	Cae-	4a\	de	.	.
!	!	!	!	!	!	!	!	!	!	!	!	!	!LO:SIC:v:l:s=cae-	!	!	!
4B\	6 4	.	.	4e/	4g/	.	4B\	ſa-	2B\	-scen-	4e\	.	4g\	ce-	.	.
!	!	!	!	!	!	!	!	!	!	!	!	!	!LO:SIC:v:s=4f#	!	!	!
4BB/	5 #	.	.	4d#X/	4f#X/	.	4BB/	-lu-	.	.	4d#X\	.	4f\	.	.	.
!	!	!	!	!	!	!	!	!	!	!	!	!	!LO:LB:g=original	!	!	!
=63	=63	=63	=63	=63	=63	=63	=63	=63	=63	=63	=63	=63	=63	=63	=63	=63
!	!	!	!	!	!	!	!LO:TX:a:t=Adagio.	!	!	!	!	!	!	!	!LO:N:vis=00	!LO:N:vis=00
4E\	.	2.ryy	.	4e/	4e/	.	4E\	-tem	4B\	-dit	4e\	-lis	4e/	-lis	0.r	0.r
!	!	!	!	!	!	!	!	!	!	!	!LO:TX:a:t=Adagio	!	!	!	!	!
4r	.	.	.	4g/	4ee\	.	4r	.	4r	.	4r	.	4r	.	.	.
!	!	!	!	!	!	!	!	!	!LO:TX:a:t=Adagio.	!	!	!	!LO:TX:a:t=Adagio	!	!	!
4r	.	.	.	4a/	4ff#X\	.	4r	.	4r	.	4r	.	4r	.	.	.
=64	=64	=64	=64	=64	=64	=64	=64	=64	=64	=64	=64	=64	=64	=64	=64	=64
!LO:TX:b:t=Adagio.	!	!	!	!LO:TX:a:t=Adagio	!LO:TX:a:t=Adagio	!	!LO:TX:a:t=15.	!	!LO:TX:a:t=15	!	!	!	!	!	!	!
!	!	!	!	!	!	!	!LO:N:vis=00	!	!LO:N:vis=00	!	!	!	!	!	!	!
4G\	.	2.ryy	.	4b 4d/	4gg 4b 4d 4G/	.	0.r	.	0.r	.	4b\	Et	4dd\	Et	.	.
4r	.	.	.	4r	4r	.	.	.	.	.	4g\	in-	4b\	in-	.	.
4r	.	.	.	4r	4r	.	.	.	.	.	4a\	-Car-	4cc\	-Car-	.	.
=65	=65	=65	=65	=65	=65	=65	=65	=65	=65	=65	=65	=65	=65	=65	=65	=65
!	!	!	!	!LO:TX:a:t=5	!LO:TX:a:t=5	!	!	!	!	!	!	!	!	!	!	!
!	!	!	!	!LO:N:vis=00	!LO:N:vis=00	!	!	!	!	!	!	!	!	!	!	!
4G\	.	2.ryy	.	0.r	0.r	.	.	.	.	.	4.b\	-na-	4.dd\	-na-	.	.
4G\	.	.	.	.	.	.	.	.	.	.	.	.	.	.	.	.
.	.	.	.	.	.	.	.	.	.	.	8cc\	-tus	8ee\	-tus	.	.
!	!	!	!	!	!	!	!	!	!	!	!	!	!LO:SIC:v:l:s=est	!	!	!
4G\	.	.	.	.	.	.	.	.	.	.	4b\	est	4dd\	es	.	.
!	!	!	!	!	!	!	!	!	!	!	!LO:LB:g=original	!	!	!	!	!
=66	=66	=66	=66	=66	=66	=66	=66	=66	=66	=66	=66	=66	=66	=66	=66	=66
4G\	.	2.ryy	.	.	.	.	.	.	.	.	4b\	de	4gg\	de	.	.
!	!	!	!	!	!	!	!	!	!	!	!	!	!LO:SIC:v:s=4ff#	!	!	!
4r	.	.	.	.	.	.	.	.	.	.	4a\	Spi-	(4ff\	spi-	.	.
4r	.	.	.	.	.	.	.	.	.	.	4cc\	.	4ee\)	.	.	.
!LO:LB:g=original	!	!	!	!	!	!	!	!	!	!	!	!	!	!	!	!
=67	=67	=67	=67	=67	=67	=67	=67	=67	=67	=67	=67	=67	=67	=67	=67	=67
!	!	!	!	!	!	!	!	!	!	!	!	!	!	!	!LO:N:vis=00	!LO:N:vis=00
4G\	5 3	2.ryy	.	.	.	.	.	.	.	.	4.b\	-ri-	4.dd\	-ri-	0.r	0.r
4F#X\	.	.	.	.	.	.	.	.	.	.	.	.	.	.	.	.
.	.	.	.	.	.	.	.	.	.	.	8a\	.	8cc\	.	.	.
4G\	3	.	.	.	.	.	.	.	.	.	4g\	-tu	4b\	-tu	.	.
=68	=68	=68	=68	=68	=68	=68	=68	=68	=68	=68	=68	=68	=68	=68	=68	=68
!	!	!	!	!	!	!	!LO:N:vis=00	!	!LO:N:vis=00	!	!	!	!	!	!	!
4d\	4	2.ryy	.	.	.	.	0.r	.	0.r	.	4g\	San-	4b\	San-	.	.
4A\	.	.	.	.	.	.	.	.	.	.	4f#X\	-cto	4a\	-cto	.	.
4F#X\	.	.	.	.	.	.	.	.	.	.	4r	.	4r	.	.	.
=69	=69	=69	=69	=69	=69	=69	=69	=69	=69	=69	=69	=69	=69	=69	=69	=69
2D\	5 #	2.ryy	.	2.r	2.r	.	.	.	.	.	4f#X\	na-	4a\	Spi-	.	.
.	.	.	.	.	.	.	.	.	.	.	4g\	.	4b\	-ri-	.	.
4r	.	.	.	.	.	.	.	.	.	.	4a\	-tus	4cc\	-tu	.	.
=70	=70	=70	=70	=70	=70	=70	=70	=70	=70	=70	=70	=70	=70	=70	=70	=70
!	!	!LO:TX:b:t=Solo.	!	!	!	!	!	!	!	!	!LO:TX:a:t=1	!	!LO:TX:a:t=1	!	!	!
8F#X\L	.	8a\L	.	4d/	4d/	p	.	.	.	.	2.r	.	2.r	.	.	.
8A\	.	8cc\	.	.	.	.	.	.	.	.	.	.	.	.	.	.
8G\	.	8b\	.	4d/	4d/	.	.	.	.	.	.	.	.	.	.	.
8B\J	.	8dd\J	.	.	.	.	.	.	.	.	.	.	.	.	.	.
4A\	.	4cc\	.	4d/	4d/	.	.	.	.	.	.	.	.	.	.	.
=71	=71	=71	=71	=71	=71	=71	=71	=71	=71	=71	=71	=71	=71	=71	=71	=71
!	!	!	!	!	!	!	!	!	!	!	!	!	!	!	!LO:N:vis=00	!LO:N:vis=00
2G\	3	2.r	.	4d/	4d/	.	.	.	.	.	4g\	na-	4b\	San-	0.r	0.r
.	.	.	.	4r	4r	.	.	.	.	.	4a\	-tus	4cc\	.	.	.
4r	.	.	.	4r	4r	.	.	.	.	.	4b\	est	4dd\	-cto	.	.
=72	=72	=72	=72	=72	=72	=72	=72	=72	=72	=72	=72	=72	=72	=72	=72	=72
!	!	!	!	!	!	!	!LO:N:vis=00	!	!LO:N:vis=00	!	!LO:TX:a:t=1	!	!LO:TX:a:t=1	!	!	!
8G\L	.	8b\L	.	4d/	4d/	.	0.r	.	0.r	.	2.r	.	2.r	.	.	.
8B\	.	8dd\	.	.	.	.	.	.	.	.	.	.	.	.	.	.
8A\	.	8cc\	.	4d/	4d/	.	.	.	.	.	.	.	.	.	.	.
8c\J	.	8ee\J	.	.	.	.	.	.	.	.	.	.	.	.	.	.
4B\	.	4dd\	.	4d/	4d/	.	.	.	.	.	.	.	.	.	.	.
=73	=73	=73	=73	=73	=73	=73	=73	=73	=73	=73	=73	=73	=73	=73	=73	=73
!	!	!	!	!LO:TX:a:t=3.	!LO:TX:a:t=3	!	!	!	!	!	!	!	!	!	!	!
!	!	!	!	!LO:N:vis=0	!LO:N:vis=0	!	!	!	!	!	!	!	!	!	!	!
4C/	.	2.ryy	.	1.r	1.r	.	.	.	.	.	2.cc\	ex	2.ee\	ex	.	.
4E\	6	.	.	.	.	.	.	.	.	.	.	.	.	.	.	.
4F#X\	5 3	.	.	.	.	.	.	.	.	.	.	.	.	.	.	.
=74	=74	=74	=74	=74	=74	=74	=74	=74	=74	=74	=74	=74	=74	=74	=74	=74
4G\	5 3_	2.ryy	.	.	.	.	.	.	.	.	4.b\	Ma-	4.dd\	Ma-	.	.
4D\	.	.	.	.	.	.	.	.	.	.	.	.	.	.	.	.
.	.	.	.	.	.	.	.	.	.	.	8a\	-ri-	8cc\	-ri-	.	.
4E\	5 3	.	.	.	.	.	.	.	.	.	4g\	-a	4b\	-a	.	.
!	!	!	!	!	!	!	!	!	!	!	!	!	!LO:LB:g=original	!	!	!
=75	=75	=75	=75	=75	=75	=75	=75	=75	=75	=75	=75	=75	=75	=75	=75	=75
!	!	!	!	!	!	!	!	!	!	!	!	!	!	!	!LO:N:vis=00	!LO:N:vis=00
4C/	6	2.ryy	.	2.r	2.r	.	.	.	.	.	4a\	Vir-	4cc\	Vir-	0.r	0.r
4D/	4	.	.	.	.	.	.	.	.	.	4g\	-gi-	4b\	.	.	.
4D/	3	.	.	.	.	.	.	.	.	.	4f#X\	.	4a\	-gi-	.	.
!	!	!	!	!LO:PB:g=original	!	!	!	!	!	!	!	!	!	!	!	!
=76	=76	=76	=76	=76	=76	=76	=76	=76	=76	=76	=76	=76	=76	=76	=76	=76
!	!	!	!	!	!	!	!LO:N:vis=0	!	!LO:N:vis=0	!	!	!	!	!	!	!
4GG/	.	2.ryy	.	4G/	4g/	.	1.r	.	1.r	.	4g\	-ne	4g\	-ne	.	.
4r	.	.	.	8g/L	8gg'\L	.	.	.	.	.	4r	.	4r	.	.	.
.	.	.	.	8f#X/	8ff#X'\	.	.	.	.	.	.	.	.	.	.	.
4r	.	.	.	8e/	8ee'\	.	.	.	.	.	4r	.	4r	.	.	.
.	.	.	.	8d/J	8dd'\J	.	.	.	.	.	.	.	.	.	.	.
!LO:LB:g=original	!	!LO:LB:g=original	!	!	!	!	!	!	!	!	!	!	!	!	!	!
=77	=77	=77	=77	=77	=77	=77	=77	=77	=77	=77	=77	=77	=77	=77	=77	=77
!	!	!	!	!	!	!	!	!	!	!	!LO:TX:a:t=2	!	!LO:TX:a:t=2	!	!	!
!	!	!	!	!	!	!	!	!	!	!	!LO:N:vis=0	!	!LO:N:vis=0	!	!	!
4E\	.	2.ryy	.	4e/	4ee\	.	.	.	.	.	1.r	.	1.r	.	.	.
4r	.	.	.	8e/L	8ee'\L	.	.	.	.	.	.	.	.	.	.	.
.	.	.	.	8d/	8dd'\	.	.	.	.	.	.	.	.	.	.	.
4r	.	.	.	8c/	8cc'\	.	.	.	.	.	.	.	.	.	.	.
.	.	.	.	8B/J	8b'\J	.	.	.	.	.	.	.	.	.	.	.
=78	=78	=78	=78	=78	=78	=78	=78	=78	=78	=78	=78	=78	=78	=78	=78	=78
4C/	.	2.ryy	.	4c/	4cc\	.	2.r	.	2.r	.	.	.	.	.	.	.
4AA/	.	.	.	4A/	4a\	.	.	.	.	.	.	.	.	.	.	.
4D\	.	.	.	4d/	4dd\	.	.	.	.	.	.	.	.	.	.	.
=79	=79	=79	=79	=79	=79	=79	=79	=79	=79	=79	=79	=79	=79	=79	=79	=79
!	!	!	!LO:DY:b=2:t=for.	!	!	!	!	!	!	!	!	!	!	!	!LO:N:vis=00	!LO:N:vis=00
2G\|	.	2.ryy	f	2G/	2g/	.	2G\	Paſ-	2G/	paſ-	2g\	Paſ-	2g\	paſ-	0.r	0.r
!	!	!	!	!	!	!	!	!	!LO:SIC:v:s=4B	!	!	!	!	!	!	!
4B\|	.	.	.	4B/	4b/	.	4B\	-sus	4c\	-sus	4b\	-sus	4b\	-sus	.	.
!	!	!	!	!	!	!	!	!	!LO:LB:g=original	!	!	!	!	!	!	!
=80	=80	=80	=80	=80	=80	=80	=80	=80	=80	=80	=80	=80	=80	=80	=80	=80
*	*	*	*	*	*	*	*	*ij	*	*	*	*	*	*	*	*
2d\|	.	2.ryy	.	2d/	2dd\	.	2d\	Paſ-	2d\	sub	2dd\	Paſ-	2dd\	et	.	.
4F#X\|	.	.	.	4f#X/	4f#X/	.	4F#X\	-sus	4F#X/	pon-	4f#X\	-sus.	4f#X/	se-	.	.
*	*	*	*	*	*	*	*	*Xij	*	*	*	*	*	*	*	*
!	!	!	!	!	!	!	!	!	!	!	!LO:LB:g=original	!	!	!	!	!
=81	=81	=81	=81	=81	=81	=81	=81	=81	=81	=81	=81	=81	=81	=81	=81	=81
2G\|	.	2.ryy	.	2g/	2g/	.	2G\	et	2G/	-ti-	2g\	et	2g\	-pul-	.	.
!	!	!	!	!	!	!	!	!	!	!	!LO:SIC:v:s=4g	!	!	!	!	!
4G\|	.	.	.	4g/	4g/	.	4G\	se-	4G/	-o	4f\	se-	4g\	-tus	.	.
=82	=82	=82	=82	=82	=82	=82	=82	=82	=82	=82	=82	=82	=82	=82	=82	=82
2B\|	.	2.ryy	.	2b\	2b\	.	2B\	-pul-	2B\	Pi-	2b\	-pul-	2b\	sub	.	.
4D#X\|	.	.	.	4d#X/	4d#X/	.	4D#X\	.	4D#X/	-la-	4d#X\	-tus	4d#X/	pon-	.	.
!	!	!	!	!	!LO:LB:g=original	!	!LO:LB:g=original	!	!	!	!	!	!	!	!	!
=83	=83	=83	=83	=83	=83	=83	=83	=83	=83	=83	=83	=83	=83	=83	=83	=83
!	!	!	!	!	!	!	!	!	!	!	!	!	!	!	!LO:N:vis=00	!LO:N:vis=00
2.Et\	.	2.ryy	.	2B/	2e/	.	2.E\	-tus	2.E/	.	2.e\	.	2.e/	-ti-	0.r	0.r
.	.	.	.	4B/	8f#X/L	.	.	.	.	.	.	.	.	.	.	.
.	.	.	.	.	8d#X/J	.	.	.	.	.	.	.	.	.	.	.
=84	=84	=84	=84	=84	=84	=84	=84	=84	=84	=84	=84	=84	=84	=84	=84	=84
4E\	.	2.ryy	.	4e/	4e/	.	4E\	est	4e\	-to	4e\	est	4e/	-o	.	.
4r	.	.	.	4g/	4ee\	.	4r	.	4r	.	4r	.	4r	.	.	.
4r	.	.	.	4g/	4ee\	.	4r	.	4r	.	4r	.	4r	.	.	.
=85	=85	=85	=85	=85	=85	=85	=85	=85	=85	=85	=85	=85	=85	=85	=85	=85
!	!	!	!	!	!	!	!	!	!	!	!	!	!LO:SIC:v:s=2cc	!	!	!
2.E\	.	2.ryy	.	4r	4r	.	2E\	ſub	2c\	paſ-	2g\	sub	2b\	Cru-	.	.
.	.	.	.	4g/	4cc\	.	.	.	.	.	.	.	.	.	.	.
.	.	.	.	4g/	4cc\	.	4E\	Pon-	4c\	-sus	4g\	Pon-	4cc\	-ci-	.	.
=86	=86	=86	=86	=86	=86	=86	=86	=86	=86	=86	=86	=86	=86	=86	=86	=86
2.D\	6 7	2.ryy	.	4r	4r	.	2.D\	-ti-	2.B\	et	2.f#X\	-ti-	2b\	-fi-	.	.
.	.	.	.	4f#X/	4b\	.	.	.	.	.	.	.	.	.	.	.
.	.	.	.	4f#/	4b\	.	.	.	.	.	.	.	4b\	-xus	.	.
=87	=87	=87	=87	=87	=87	=87	=87	=87	=87	=87	=87	=87	=87	=87	=87	=87
!	!	!	!	!	!	!	!	!	!	!	!	!	!	!	!LO:N:vis=0	!LO:N:vis=0
2.C/	7 5	2.ryy	.	4r	4r	.	2C/	-o	2A\	se-	2e\	-o	2b\	e-	1.r	1.r
.	.	.	.	4e/	4b\	.	.	.	.	.	.	.	.	.	.	.
.	.	.	.	4e/	4b\	.	4C/	Pi-	4A\	.	4e\	pi-	4cc\	-tiam	.	.
!	!	!	!	!	!	!	!	!	!	!	!	!	!LO:LB:g=original	!	!	!
=88	=88	=88	=88	=88	=88	=88	=88	=88	=88	=88	=88	=88	=88	=88	=88	=88
2.C/	6\ 3	2.ryy	.	4r	4r	.	2C/	-la-	2c\	-pul-	2e\	-la-	2a#X\	pro	.	.
.	.	.	.	4e/	4a#X/	.	.	.	.	.	.	.	.	.	.	.
.	.	.	.	4e/	4a#/	.	4C/	.	4c\	-tus	4e\	.	4a#\	no-	.	.
=89	=89	=89	=89	=89	=89	=89	=89	=89	=89	=89	=89	=89	=89	=89	=89	=89
4BB/	#	2.ryy	.	4d#X;/	4b;\	.	4BB;/	-to	4d#X;\	est.	4f#X;\	-to.	4b\;	-bis	2.r;	2.r;
4r	.	.	.	4r	4r	.	4r	.	4r	.	4r	.	4r	.	.	.
4r	.	.	.	4r	4r	.	4r	.	4r	.	4r	.	4r	.	.	.
!LO:PB:g=original	!	!	!	!	!	!	!	!	!LO:LB:g=original	!	!	!	!	!	!	!LO:LB:g=original
=90;	=90	=90	=90	=90	=90	=90	=90	=90	=90	=90	=90	=90	=90	=90	=90	=90
!LO:TX:a:t=Tutti. Allo.	!	!	!	!LO:TX:a:t=Allo.	!LO:TX:a:t=Allo.	!	!LO:TX:a:t=Allo.	!	!LO:TX:a:t=Allo.	!	!LO:TX:a:t=Allo.	!	!LO:TX:a:t=Allo.	!	!	!
8G\L	.	2.ryy	.	2B/	2g/	.	4G\	ter-	4B\	Et	4d\	Et	4g\	ter-	2g/	2dd\
8D\	.	.	.	.	.	.	.	.	.	.	.	.	.	.	.	.
8G\	5 3	.	.	.	.	.	4G\	-ti-	4B\	re-	4d\	re-	4g\	-ti-	.	.
8D\	.	.	.	.	.	.	.	.	.	.	.	.	.	.	.	.
8G\	.	.	.	4B/	4g/	.	4G\	-a	4B\	-sur-	4d\	-sur-	4g\	-a	4g/	4dd\
8D\J	.	.	.	.	.	.	.	.	.	.	.	.	.	.	.	.
=91	=91	=91	=91	=91	=91	=91	=91	=91	=91	=91	=91	=91	=91	=91	=91	=91
8F#X\L	6	2.ryy	.	2d/	2a/	.	2F#X\	di-	2d\	-re-	2f#X\	-re-	2a\	di-	2dd\	2dd\
8D\	.	.	.	.	.	.	.	.	.	.	.	.	.	.	.	.
8F#\	.	.	.	.	.	.	.	.	.	.	.	.	.	.	.	.
8D\	.	.	.	.	.	.	.	.	.	.	.	.	.	.	.	.
!	!	!	!	!	!	!	!LO:SIC:v:l:s=-e	!	!	!	!	!	!LO:SIC:v:l:s=-e	!	!	!
8G\	5 3	.	.	4g/	4b/	.	4G\	-ae	4d\	-xit	4g\	-xit	4b\	-ae	4r	4r
8D\J	.	.	.	.	.	.	.	.	.	.	.	.	.	.	.	.
!	!	!	!	!LO:LB:g=original	!	!	!	!	!	!	!	!	!	!	!	!
=92	=92	=92	=92	=92	=92	=92	=92	=92	=92	=92	=92	=92	=92	=92	=92	=92
.	.	.	.	.	8qqdd/	.	.	.	.	.	.	.	.	.	.	.
8A\L	.	2.ryy	.	4d/	4cc\	.	4A\	ſe-	2d\	re-	4a\	ter-	4cc\	ter-	4r	4r
8D\	.	.	.	.	.	.	.	.	.	.	.	.	.	.	.	.
!	!	!	!	!	!	!	!	!	!	!	!LO:SIC:v:l:s=-ti-	!	!	!	!	!
8G\	.	.	.	4d/	4b\	.	4G\	-cun-	.	.	4g\	-ci-	4b\	-ti-	4r	4r
8D\	.	.	.	.	.	.	.	.	.	.	.	.	.	.	.	.
!	!	!	!	!	!	!	!	!	!	!	!LO:SIC:v:s=4f#	!	!	!	!	!
8F#X\	.	.	.	4d/	4a\	.	4F#X\	-dum	4d\	-sur-	4f\	-a	4a\	-a	4dd\	4dd\
8D\J	.	.	.	.	.	.	.	.	.	.	.	.	.	.	.	.
=93	=93	=93	=93	=93	=93	=93	=93	=93	=93	=93	=93	=93	=93	=93	=93	=93
!	!	!	!	!	!	!	!	!	!	!	!	!	!LO:SIC:v:s=4b	!	!	!
4G\	.	2.ryy	.	4d/	4b\	.	4G\	.	4d\	-re-	4g\	di-	4a\	di-	4g/	4dd\
!	!	!	!	!	!	!	!	!	!	!	!LO:SIC:v:l:s=-e	!	!	!	!	!
!	!	!	!	!	!	!	!	!	!	!	!LO:SIC:v:s=4f#	!	!LO:SIC:v:l:s=-e	!	!	!
4D\	#	.	.	4f#X/	4a\	.	4D\	.	4d\	-xit	4f\	-ae	4a\	-ae	4dd\	4dd\
4r	.	.	.	4r	8b\L	.	4r	.	4r	.	4r	.	4r	.	4r	4r
.	.	.	.	.	8dd\J	.	.	.	.	.	.	.	.	.	.	.
!	!	!	!	!	!	!	!	!	!	!	!LO:LB:g=original	!	!	!	!	!
=94	=94	=94	=94	=94	=94	=94	=94	=94	=94	=94	=94	=94	=94	=94	=94	=94
!LO:TX:a:t=2	!	!	!	!	!	!	!LO:TX:a:t=2	!	!LO:TX:a:t=2	!	!LO:TX:a:t=2	!	!LO:TX:a:t=2	!	!LO:TX:a:t=6	!LO:TX:a:t=6
.	.	.	.	.	8qqdd/	.	.	.	.	.	.	.	.	.	.	.
!LO:N:vis=0	!	!	!	!	!	!	!LO:N:vis=0	!	!LO:N:vis=0	!	!LO:N:vis=0	!	!LO:N:vis=0	!	!LO:N:vis=00	!LO:N:vis=00
1.r	.	2.ryy	.	4e/	4cc\	.	1.r	.	1.r	.	1.r	.	1.r	.	0.r	0.r
.	.	.	.	4d/	4b\	.	.	.	.	.	.	.	.	.	.	.
.	.	.	.	4c/	4a\	.	.	.	.	.	.	.	.	.	.	.
=95	=95	=95	=95	=95	=95	=95	=95	=95	=95	=95	=95	=95	=95	=95	=95	=95
.	.	2.ryy	.	4B/	8g/L	.	.	.	.	.	.	.	.	.	.	.
.	.	.	.	.	8b/J	.	.	.	.	.	.	.	.	.	.	.
.	.	.	.	4d/	4a/	.	.	.	.	.	.	.	.	.	.	.
.	.	.	.	4r	4r	.	.	.	.	.	.	.	.	.	.	.
!	!	!	!	!	!LO:LB:g=original	!	!LO:LB:g=original	!	!	!	!	!	!	!	!	!
=96	=96	=96	=96	=96	=96	=96	=96	=96	=96	=96	=96	=96	=96	=96	=96	=96
!	!	!	!	!	!	!	!	!	!	!	!LO:SIC:v:s=4g	!	!	!	!	!
4E\	6	2.ryy	.	4g/	4cc\	.	4E\	ter-	4c\	ter-	4a\	ſe-	4cc\	se-	.	.
!	!	!	!	!	!	!	!	!	!	!	!LO:SIC:v:s=4f#	!	!	!	!	!
4D\	6	.	.	4f#X/	4b\	.	4D\	-ti-	4B\	-ti-	4g\	-cun-	4b\	-cun-	.	.
!	!	!	!	!	!	!	!	!	!	!	!LO:SIC:v:s=4e	!	!	!	!	!
4C\	6	.	.	4e/	4a\	.	4C\	-a	4A\	-a	4f\	-dum	4a\	-dum	.	.
=97	=97	=97	=97	=97	=97	=97	=97	=97	=97	=97	=97	=97	=97	=97	=97	=97
!	!	!	!	!	!	!	!	!	!	!	!LO:SIC:v:s=8f#	!	!	!	!	!
4C/	+4r 2	2.ryy	.	4d/	4f#X/	.	4C/	di-	8d\	ter-	8f\L	scri-	8a\L	scri-	.	.
!	!	!	!	!	!	!	!	!	!	!	!LO:SIC:v:s=8f#	!	!	!	!	!
.	.	.	.	.	.	.	.	.	8d\	-ti-	8f\J	-ptu-	8a\J	-ptu-	.	.
!	!	!	!	!	!	!	!LO:SIC:v:l:s=-e	!	!	!	!	!	!	!	!	!
4BB/	6	.	.	4d/	8g\L	.	4BB/	-ae	4d\	-a	4g\	-ras	4g\	-ras	.	.
.	.	.	.	.	8dd\	.	.	.	.	.	.	.	.	.	.	.
4r	.	.	.	4r	8b\	.	4r	.	4r	.	4r	.	4r	.	.	.
.	.	.	.	.	8g\J	.	.	.	.	.	.	.	.	.	.	.
=98	=98	=98	=98	=98	=98	=98	=98	=98	=98	=98	=98	=98	=98	=98	=98	=98
*	*	*	*	*tremolo	*	*	*	*	*	*	*	*	*	*	*	*
!	!	!	!	!	!	!	!	!	!	!	!LO:SIC:v:s=2f#	!	!	!	!LO:N:vis=0	!LO:N:vis=0
8D\L	#_	2.ryy	.	8f#X/L	8a/L	.	2D\	et	2d\	di-	2f\	et	2a\	et	1.r	1.r
8D\	.	.	.	8f#X/	8a/	.	.	.	.	.	.	.	.	.	.	.
8D\	.	.	.	8f#X/	8a/	.	.	.	.	.	.	.	.	.	.	.
8D\	.	.	.	8f#X/	8a/	.	.	.	.	.	.	.	.	.	.	.
!	!	!	!	!	!	!	!	!	!LO:SIC:v:l:s=-e	!	!LO:SIC:v:s=4f#	!	!	!	!	!
8D\	.	.	.	8f#X/	8a/	.	4D\	a-	4d\	-ae	4f\	a-	4a\	a-	.	.
8D\J	X	.	.	8f#X/J	8a/J	.	.	.	.	.	.	.	.	.	.	.
=99	=99	=99	=99	=99	=99	=99	=99	=99	=99	=99	=99	=99	=99	=99	=99	=99
*tremolo	*	*	*	*	*	*	*	*	*	*	*	*	*	*	*	*
8D\L	6 4	2.ryy	.	8g/L	8b/L	.	4D\	-scen-	4d\	se-	4g\	-scen-	4.b\	-scen-	.	.
8D\	.	.	.	8g/	8b/	.	.	.	.	.	.	.	.	.	.	.
8D\	.	.	.	8g/	8b/	.	8D\	-dit	8d\	-cun-	8g\L	-dit	.	.	.	.
8D\	.	.	.	8g/	8b/	.	8D\	in	8d\	.	8g\J	in	8b\	-dit	.	.
!	!	!	!	!	!	!	!LO:SIC:v:l:s=Cae-	!	!	!	!	!	!LO:LB:g=original	!	!	!
8D\	.	.	.	8g/	8b/	.	4D\	Ce-	4d\	-dum	4g\	Cae-	8b\L	in	.	.
8D\J	.	.	.	8g/J	8b/J	.	.	.	.	.	.	.	8b\J	.	.	.
!	!	!	!	!	!	!	!	!	!LO:PB:g=original	!	!	!	!	!	!LO:LB:g=original	!
=100	=100	=100	=100	=100	=100	=100	=100	=100	=100	=100	=100	=100	=100	=100	=100	=100
!	!	!	!	!	!	!	!	!	!	!	!	!	!LO:SIC:v:l:s=Cae-	!	!	!
4D\	7 5	2.ryy	.	4a/	8cc\L	.	4D\	-lum	4d\	scri-	4a\	-lum	4cc\	Ce-	2dd\	2dd\
.	.	.	.	.	8aa\	.	.	.	.	.	.	.	.	.	.	.
4F#X\	.	.	.	4a/	8cc\	.	4D\	se-	4d\	-ptu-	4a\	sed-	4cc\	-lum	.	.
.	.	.	.	.	8aa\	.	.	.	.	.	.	.	.	.	.	.
4G\	3	.	.	4d/	8b\	.	8D\	-det	8d\	-ras	8g\L	-et	8b\L	et	4g/	4dd\
.	.	.	.	.	8gg\J	.	8D\	ad	8d\	et	8g\J	ad	8b\J	ad	.	.
!LO:LB:g=original	!	!	!	!	!	!	!	!	!	!	!	!	!	!	!	!
=101	=101	=101	=101	=101	=101	=101	=101	=101	=101	=101	=101	=101	=101	=101	=101	=101
4D\	4	2.ryy	.	4g/	4b\	.	8D\	dex-	8d\	a-	8g\L	dex-	8b\L	dex-	4dd\	4dd\
!	!	!	!	!	!	!	!LO:SIC:v:l:s=-te-	!	!	!	!	!	!	!	!	!
.	.	.	.	.	.	.	8D\	-ter-	8d\	-scen-	8g\J	-te-	8b\J	-te-	.	.
!	!	!	!	!	!	!	!	!	!	!	!	!	!LO:SIC:v:l:s=-ram	!	!	!
4D\	3	.	.	4f#X/	16a/LL	.	4D\	-ram	4d\	-dit	4f#X\	-ram	4a\	-ra	4dd\	4dd\
.	.	.	.	.	16d/	.	.	.	.	.	.	.	.	.	.	.
.	.	.	.	.	16e/	.	.	.	.	.	.	.	.	.	.	.
.	.	.	.	.	16f#X/JJ	.	.	.	.	.	.	.	.	.	.	.
4r	.	.	.	4r	16g/LL	.	4r	.	4r	.	4r	.	4r	.	4r	4r
.	.	.	.	.	16a/	.	.	.	.	.	.	.	.	.	.	.
.	.	.	.	.	16b/	.	.	.	.	.	.	.	.	.	.	.
.	.	.	.	.	16cc#X/JJ	.	.	.	.	.	.	.	.	.	.	.
=102	=102	=102	=102	=102	=102	=102	=102	=102	=102	=102	=102	=102	=102	=102	=102	=102
!	!	!	!	!	!	!	!	!	!	!	!LO:SIC:v:s=2f#	!	!	!	!LO:TX:a:t=35.	!LO:TX:a:t=35.
!	!	!	!	!	!	!	!	!	!	!	!	!	!	!	!LO:N:vis=00	!LO:N:vis=00
8D\L	#_	2.ryy	.	8f#X/L	2dd\	.	2D\	De-	2A\	et	2f\	Pa-	2dd\	De-	0.r	0.r
8D\	.	.	.	8f#X/	.	.	.	.	.	.	.	.	.	.	.	.
8D\	.	.	.	8f#X/	.	.	.	.	.	.	.	.	.	.	.	.
8D\	.	.	.	8f#X/	.	.	.	.	.	.	.	.	.	.	.	.
!	!	!	!	!	!	!	!	!	!	!	!LO:SIC:v:s=4f#	!	!	!	!	!
8D\	.	.	.	8f#X/	4a\	.	4D\	-i	4A\	a-	4f\	-tris	4a\	-i	.	.
8D\J	.	.	.	8f#X/J	.	.	.	.	.	.	.	.	.	.	.	.
*	*	*	*	*Xtremolo	*	*	*	*	*	*	*	*	*	*	*	*
=103	=103	=103	=103	=103	=103	=103	=103	=103	=103	=103	=103	=103	=103	=103	=103	=103
8D\L	.	2.ryy	.	4.d/	4.f#X/	.	2D\	Pa-	2A\	-scen-	4.d\	Pa-	4.f#X/	Pa-	.	.
8D\	.	.	.	.	.	.	.	.	.	.	.	.	.	.	.	.
8D\	.	.	.	.	.	.	.	.	.	.	.	.	.	.	.	.
8D\	.	.	.	8e/	8g/	.	.	.	.	.	8e\	.	8g/	.	.	.
8D\	.	.	.	4f#X/	4a/	.	4D\	-tris	4A\	-dit	4f#X\	-tris	4a/	-tris	.	.
8D\J	X	.	.	.	.	.	.	.	.	.	.	.	.	.	.	.
*Xtremolo	*	*	*	*	*	*	*	*	*	*	*	*	*	*	*	*
=104	=104	=104	=104	=104	=104	=104	=104	=104	=104	=104	=104	=104	=104	=104	=104	=104
4G\	9 6	2.ryy	.	4e/	4g/	.	4G\	om-	4B\	in	4e\	om-	4g/	om-	.	.
!	!	!	!	!	!	!	!	!	!	!	!	!	!LO:SIC:v:s=4f#	!	!	!
4A\	6\ 4	.	.	4d/	4f#X/	.	4A\	-ni-	4A\	Cae-	4d\	-ni-	4f/	-ni-	.	.
4AA/	x 3	.	.	4c#X/	4e/	.	4AA/	-po-	4A\	-lum	4c#X\	-po-	4e/	.	.	.
=105	=105	=105	=105	=105	=105	=105	=105	=105	=105	=105	=105	=105	=105	=105	=105	=105
*tremolo	*	*	*	*	*	*	*	*	*	*	*	*	*	*	*	*
8D\L	#	2.ryy	.	4.d/	4.f#X/	.	2D\	-ten-	2A\	et	4.d\	-ten-	4.f#X/	-po-	.	.
8D\	.	.	.	.	.	.	.	.	.	.	.	.	.	.	.	.
8D\	.	.	.	.	.	.	.	.	.	.	.	.	.	.	.	.
8D\	.	.	.	8e/	8g/	.	.	.	.	.	8e\	.	8g/	-ten-	.	.
8D\	.	.	.	4f#X/	4a/	.	4D\	-tes	4A\	mor-	4f#X\	-tes	4a/	-tes	.	.
8D\J	.	.	.	.	.	.	.	.	.	.	.	.	.	.	.	.
*Xtremolo	*	*	*	*	*	*	*	*	*	*	*	*	*	*	*	*
!	!	!	!	!	!	!	!LO:LB:g=original	!	!	!	!LO:LB:g=original	!	!	!	!	!
=106	=106	=106	=106	=106	=106	=106	=106	=106	=106	=106	=106	=106	=106	=106	=106	=106
!	!	!	!	!	!	!	!	!	!	!	!	!	!	!	!LO:N:vis=00	!LO:N:vis=00
4G\	.	2.ryy	.	4e/	4g/	.	4G\	et	4B\	-tu-	4e\	et	4g/	et	0.r	0.r
4A\	.	.	.	4d/	4f#X/	.	8A\	i-	8A\	-o-	8d\L	i-	8f#X/L	i-	.	.
.	.	.	.	.	.	.	8A\	-te-	8A\	-rum	8d\J	-te-	8f#/	-te-	.	.
4AA/	.	.	.	4c#X/	4e/	.	8AA/	-rum	4A\	.	8c#X\L	-rum	8e/	-rum	.	.
.	.	.	.	.	.	.	8AA/	ven-	.	.	8c#\J	ven-	8e/J	.	.	.
!	!	!	!	!	!LO:LB:g=original	!	!	!	!	!	!	!	!	!	!	!
=107	=107	=107	=107	=107	=107	=107	=107	=107	=107	=107	=107	=107	=107	=107	=107	=107
!	!	!	!	!	!	!	!	!	!	!	!	!	!LO:SIC:v:s=4.f#	!	!	!
2.D\	#	2.ryy	.	4.d/	4f#X/	.	4.D\	tu-	4.A\	et	4.d\	tu-	4.f/	ven-	.	.
.	.	.	.	.	4g/	.	.	.	.	.	.	.	.	.	.	.
.	.	.	.	8e/	.	.	8D\	-rus	8A\	as-	8e\	-rus	8g/	-tu-	.	.
.	.	.	.	4f#X/	4a/	.	4D\	est	4A\	-cen-	4f\	est	4a/	-rus	.	.
=108	=108	=108	=108	=108	=108	=108	=108	=108	=108	=108	=108	=108	=108	=108	=108	=108
4G\	.	2.ryy	.	4e/	4g/	.	4G\	cum	4B\	-dit	4e\	cum	4g/	est	.	.
!	!	!	!	!	!	!	!	!	!	!	!	!	!LO:SIC:v:s=4f#	!	!	!
4A\	.	.	.	4d/	4f#X/	.	4A\	glo-	4A\	in	4d\	glo-	4f/	.	.	.
4AA/	.	.	.	4c#X/	4e/	.	4AA/	-ri-	4A\	Cae-	4c#X\	-ri-	4e/	cum	.	.
!	!	!	!	!LO:LB:g=original	!	!	!	!	!LO:LB:g=original	!	!	!	!LO:LB:g=original	!	!	!
=109	=109	=109	=109	=109	=109	=109	=109	=109	=109	=109	=109	=109	=109	=109	=109	=109
4D\	#	2.ryy	.	4d/	4d/	.	4D\	-a	4A\	-lum	4d\	-a	4d/	glo-	.	.
*clefC1	*	*	*	*	*	*	*	*	*	*	*	*	*	*	*	*
4dd\	.	.	.	4dd\	4dd\	.	4r	.	4r	.	4r	.	4dd\	-ri-	.	.
4dd\	.	.	.	4dd\	4dd\	.	4r	.	4r	.	4r	.	4dd\	-a	.	.
=110	=110	=110	=110	=110	=110	=110	=110	=110	=110	=110	=110	=110	=110	=110	=110	=110
*clefF4	*	*	*	*	*	*	*	*	*	*	*	*	*	*	*	*
!	!	!	!	!	!	!	!	!	!	!	!	!	!	!	!LO:N:vis=00	!LO:N:vis=00
2E\	7 #	2.ryy	.	4g#X/	4dd\	.	2E\	Ju-	4B\	se-	4g#X\	vi-	4dd\	judi-	0.r	0.r
.	6\ 4	.	.	4a/	4cc\	.	.	.	4c\	-det	4a\	-vos	4cc\	-ca-	.	.
4E\	5 3	.	.	4g#/	4b\	.	4E\	-di-	4d\	ad	4g#\	et	4b\	-re	.	.
=111	=111	=111	=111	=111	=111	=111	=111	=111	=111	=111	=111	=111	=111	=111	=111	=111
*	*	*	*	*	*	*	*	*	*	*	*	*	*	*ij	*	*
2A\	n	2.ryy	.	4a\	4cc\	.	2A\	-ca-	2e\	dex-	4a\	mor-	4cc\	judi-	.	.
.	.	.	.	4b\	4dd\	.	.	.	.	.	4b\	-tu-	4dd\	-ca-	.	.
!	!	!	!	!	!	!	!	!	!LO:SIC:v:l:s=-te-	!	!	!	!	!	!	!
4A\	.	.	.	4ccn\	4ee\	.	4A\	-re	4e\	-ter-	4cc\	-os	4ee\	-re	.	.
*	*	*	*	*	*	*	*	*	*	*	*	*	*	*Xij	*	*
=112	=112	=112	=112	=112	=112	=112	=112	=112	=112	=112	=112	=112	=112	=112	=112	=112
4A\	n	2.ryy	.	4cc\	4ee\	.	4A\	vi-	2.e\	-ram	4cc\	cu-	4ee\	vi-	.	.
4G#X\	5 3	.	.	4b\	4dd\	.	4G#X\	-vos	.	.	4b\	.	4dd\	-vos	.	.
4A\	n	.	.	8a\L	8cc\L	.	4A\	et	.	.	4a\	-jus	4cc\	et	.	.
.	.	.	.	8cc\J	8aa\J	.	.	.	.	.	.	.	.	.	.	.
!LO:LB:g=original	!	!	!	!	!	!	!	!	!	!	!	!	!	!	!	!
=113	=113	=113	=113	=113	=113	=113	=113	=113	=113	=113	=113	=113	=113	=113	=113	=113
4E\	4	2.ryy	.	4a/	4cc\	.	8E\L	mor-	8e\	dex-	8a\	reg-	8cc\	mor-	.	.
!	!	!	!	!	!	!	!	!	!LO:SIC:v:l:s=-te-	!	!	!	!	!	!	!
.	.	.	.	.	.	.	8E\J	-tu-	8e\	-ter-	8a\	-ni	8cc\	-tu-	.	.
4E\	3	.	.	4g#X/	8b/L	.	4E\	-os	4B\	-ram	4g#X\	non	4b\	-os	.	.
.	.	.	.	.	8e/	.	.	.	.	.	.	.	.	.	.	.
4r	.	.	.	4r	8g#X/	.	4r	.	4r	.	4r	.	4r	.	.	.
.	.	.	.	.	8b/J	.	.	.	.	.	.	.	.	.	.	.
=114	=114	=114	=114	=114	=114	=114	=114	=114	=114	=114	=114	=114	=114	=114	=114	=114
!	!	!	!	!	!	!	!	!	!	!	!	!	!	!	!LO:N:vis=00	!LO:N:vis=00
4AA/	n	2.ryy	.	4a/	4cc\	.	4AA/	cu-	2e\	Pa-	2a\	e-	2cc\	cu-	0.r	0.r
4C/	6	.	.	4a/	4cc\	.	4C/	.	.	.	.	.	.	.	.	.
4E\	#	.	.	4a/	4cc\	.	4E/	-jus	4e\	-tris	4a\	-rit	4cc\	-jus	.	.
!	!	!	!	!	!	!	!LO:LB:g=original	!	!	!	!	!	!	!	!	!
=115	=115	=115	=115	=115	=115	=115	=115	=115	=115	=115	=115	=115	=115	=115	=115	=115
4A\	n	2.ryy	.	4.a\	4.cc\	.	2A\	re-	2e\	De-	4.a\	fi-	4.cc\	re-	.	.
4AA/	.	.	.	.	.	.	.	.	.	.	.	.	.	.	.	.
.	.	.	.	8b\	8dd\	.	.	.	.	.	8b\	.	8dd\	-gni	.	.
4A\	.	.	.	4cc\	4ee\	.	4A\	-gni	4e\	-I	4cc\	-nis	4ee\	non	.	.
!	!	!	!	!	!	!	!	!	!	!	!LO:PB:g=original	!	!	!	!	!
=116	=116	=116	=116	=116	=116	=116	=116	=116	=116	=116	=116	=116	=116	=116	=116	=116
4D\	n	2.ryy	.	4a/	4ff\	.	4D\	non	4d\	om-	4a\	et	4ff\	e-	.	.
4Fn\	.	.	.	4a/	4ff\	.	4F\	e-	4d\	-ni-	4a\	in	4ff\	-rit	.	.
4A\	6	.	.	4a/	4ff\	.	4A\	-rit	4d\	-po-	4a\	Spi-	4ff\	.	.	.
=117	=117	=117	=117	=117	=117	=117	=117	=117	=117	=117	=117	=117	=117	=117	=117	=117
4d\	.	2.ryy	.	4.dd\	4.ff\	.	2d\	fi-	4.d\	-ten-	2a\	-ri-	4.ff\	fi-	.	.
4D/	.	.	.	.	.	.	.	.	.	.	.	.	.	.	.	.
.	.	.	.	8ee\	8gg\	.	.	.	8e\	.	.	.	8gg\	.	.	.
4d\	.	.	.	4ff\	4aa\	.	4D\	-nis	4f\	-tes	4a\	-tum	4aa\	-nis	.	.
=118	=118	=118	=118	=118	=118	=118	=118	=118	=118	=118	=118	=118	=118	=118	=118	=118
!	!	!	!	!	!	!	!	!	!	!	!	!	!	!	!LO:N:vis=00	!LO:N:vis=00
4GG/	5_ 3_	2.ryy	.	4d/	4b\	.	4GG/	et	2d\	et	2g\	San-	2b\	et	0.r	0.r
4BB/	.	.	.	4d/	4b\	.	4BB/	.	.	.	.	.	.	.	.	.
4D/	X X	.	.	4d/	4b\	.	4D/	in	4d\	i-	4g\	-ctum	4b\	in	.	.
!	!	!	!	!	!	!	!	!	!LO:LB:g=original	!	!	!	!	!	!	!
=119	=119	=119	=119	=119	=119	=119	=119	=119	=119	=119	=119	=119	=119	=119	=119	=119
4G\	5_ 3_	2.ryy	.	4.g/	4.b\	.	4.G\	Spi-	4.d\	-i-	4.g\	Do-	4.b\	Spi-	.	.
4GG/	.	.	.	.	.	.	.	.	.	.	.	.	.	.	.	.
.	.	.	.	8a/	8cc\	.	8G\	-ri-	8d\	-te-	8a\	-mi-	8cc\	-ri-	.	.
!	!	!	!	!	!	!	!LO:N:vis=4	!	!	!	!	!	!	!	!	!
4G\	.	.	.	4b/	4dd\	.	8G\	-tum	4d\	-rum	4b\	-num	4dd\	-tum	.	.
!	!	!	!	!	!	!	!LO:N:vis=4	!	!	!	!	!	!	!	!	!
.	X X	.	.	.	.	.	8r	.	.	.	.	.	.	.	.	.
!	!	!	!	!	!LO:LB:g=original	!	!	!	!	!	!	!	!LO:LB:g=original	!	!	!
=120	=120	=120	=120	=120	=120	=120	=120	=120	=120	=120	=120	=120	=120	=120	=120	=120
4C/	8_ 5_ 3_	2.ryy	.	4g/	4ee\	.	4C/	San-	2c\	De-	2g\	et	2ee\	San-	.	.
4E\	.	.	.	4g/	4ee\	.	4E/	.	.	.	.	.	.	.	.	.
4G\	X X X	.	.	4g/	4ee\	.	4G\	-ctum	4c\	-i	4g\	vi-	4ee\	-ctum	.	.
=121	=121	=121	=121	=121	=121	=121	=121	=121	=121	=121	=121	=121	=121	=121	=121	=121
4c\	.	2.ryy	.	4.cc\	4.ee\	.	4.c\	Do-	4.c\	Pa-	4.g\	-vi-	4.ee\	San-	.	.
4C/	.	.	.	.	.	.	.	.	.	.	.	.	.	.	.	.
.	.	.	.	8dd\	8ff\	.	8c\	-mi-	8d\	.	8g\	-fi-	8ff\	.	.	.
4c\	.	.	.	4ee\	4gg\	.	4c\	-num	4e\	-tris	4g\	-can-	4gg\	-ctum	.	.
=122	=122	=122	=122	=122	=122	=122	=122	=122	=122	=122	=122	=122	=122	=122	=122	=122
!	!	!	!	!	!	!	!	!	!	!	!	!	!	!	!LO:N:vis=00	!LO:N:vis=00
4FF/	5 3	2.ryy	.	4c/	4a/	.	4FF/	vi-	4c\	o-	4f\	-tem	4a\	Do-	0.r	0.r
4AA/	.	.	.	4c/	4a/	.	4AA/	-vi-	4c\	-mni-	4f\	qui	4a\	-mi-	.	.
4C/	.	.	.	4c/	4a/	.	4C/	-fi-	4c\	-po-	4f\	ex	4a\	-num	.	.
=123	=123	=123	=123	=123	=123	=123	=123	=123	=123	=123	=123	=123	=123	=123	=123	=123
4F\	.	2.ryy	.	4.f/	4.a\	.	2F\	-can-	2c\	-ten-	4.f\	Pa-	4.a\	et	.	.
4FF/	.	.	.	.	.	.	.	.	.	.	.	.	.	.	.	.
.	.	.	.	8g/	8b\	.	.	.	.	.	8g\	.	8b\	.	.	.
4F\	.	.	.	4a/	4cc\	.	4F\	-tem	4c\	-tes	4a\	-tre,	4cc\	vi-	.	.
!	!	!	!	!LO:LB:g=original	!	!	!	!	!	!	!	!	!	!	!	!
=124	=124	=124	=124	=124	=124	=124	=124	=124	=124	=124	=124	=124	=124	=124	=124	=124
4BB\	#	2.ryy	.	4f/	4dd\	.	4BB/	qui	2B\	cu-	2f\	Fi-	2dd\	-vi-	.	.
4D\	8 5 n	.	.	4f/	4dd\	.	4D/	.	.	.	.	.	.	.	.	.
4F\	.	.	.	4f/	4dd\	.	4F/	ex	4B\	-jus	4f\	-lio-	4dd\	-fi-	.	.
!LO:LB:g=original	!	!	!	!	!	!	!LO:LB:g=original	!	!	!	!	!	!	!	!	!
=125	=125	=125	=125	=125	=125	=125	=125	=125	=125	=125	=125	=125	=125	=125	=125	=125
!	!	!	!	!	!	!	!	!	!LO:SIC:v:s=4.B	!	!	!	!	!	!	!
4B\	.	2.ryy	.	4.b\	4.dd\	.	4.B\	Pa-	4.A\	re-	2f\	-o	4.dd\	-can-	.	.
4BB/	.	.	.	.	.	.	.	.	.	.	.	.	.	.	.	.
.	.	.	.	8cc\	8ee\	.	8B\	-tre	8c\	.	.	.	8ee\	.	.	.
4B\	.	.	.	4dd\	4ff\	.	4B\	Fi-	4d\	-gni	4f\	que	4ff\	-tem	.	.
=126	=126	=126	=126	=126	=126	=126	=126	=126	=126	=126	=126	=126	=126	=126	=126	=126
!	!	!	!	!	!	!	!	!	!	!	!	!	!	!	!LO:N:vis=00	!LO:N:vis=00
4EE/	#_	2.ryy	.	4B/	4g#X/	.	8E\L	-li-	8B\	non	8e\	pro-	8g#X/L	qui	0.r	0.r
.	.	.	.	.	.	.	8E\J	-o-	8B\	e-	8e\	-ce-	8g#/J	ex	.	.
4GG#X/	.	.	.	4B/	4g#/	.	4G#X\	-que	4B\	-rit	4e\	-dit	4g#/	pa-	.	.
4BB/	.	.	.	4B/	4g#/	.	8B\L	pro-	8B\	fi-	8e\	qui	8g#/L	-tre	.	.
.	X	.	.	.	.	.	8B\J	-ce-	8B\	-nis	8e\	cum	8g#/J	.	.	.
!	!	!	!	!	!	!	!	!	!	!	!LO:LB:g=original	!	!	!	!	!
=127	=127	=127	=127	=127	=127	=127	=127	=127	=127	=127	=127	=127	=127	=127	=127	=127
!	!	!	!	!	!LO:SIC:v:s=4.g#	!	!	!	!	!	!	!	!LO:SIC:v:s=4.g#	!	!	!
4E\	.	2.ryy	.	4.e/	4.g/	.	2E\	-dit	2B\	fi-	4.e\	Pa-	4.g\	Fi-	.	.
4EE/	.	.	.	.	.	.	.	.	.	.	.	.	.	.	.	.
.	.	.	.	8f#X/	8a/	.	.	.	.	.	8f#X\	-tre	8a\	-li-	.	.
4E\	.	.	.	4g#X/	4b/	.	4E\	et	4B\	-nis	4g#X\	et	4b\	-o-	.	.
=128	=128	=128	=128	=128	=128	=128	=128	=128	=128	=128	=128	=128	=128	=128	=128	=128
!	!	!	!	!	!	!LO:DY:t=p	!LO:TX:a:t=4.	!	!LO:TX:a:t=4	!	!	!	!	!	!	!
!	!	!	!	!	!	!	!LO:N:vis=00	!	!LO:N:vis=00	!	!	!	!	!	!	!
4A\	.	2.ryy	.	4e/	(4cc\	p	0.r	.	0.r	.	4e\	Fi-	4cc\	-que	.	.
4r	.	.	.	4d/	4b\	.	.	.	.	.	4d\	-li-	4b\	pro-	.	.
4r	.	.	.	4c/	4a\)	.	.	.	.	.	4c\	-o	4a\	.	.	.
=129	=129	=129	=129	=129	=129	=129	=129	=129	=129	=129	=129	=129	=129	=129	=129	=129
!	!	!	!LO:DY:b=2:t=piano	!	!	!	!	!	!	!	!LO:SIC:v:s=4f	!	!	!	!	!
4G#X\	7	2.ryy	p	4f/	(4dd\	.	.	.	.	.	4f#X\	ſi-	4dd\	-ce-	.	.
4r	.	.	.	4e/	4cc\	.	.	.	.	.	4e\	.	4cc\	.	.	.
4r	.	.	.	4d/	4b\)	.	.	.	.	.	4d\	-mul	4b\	-dit	.	.
=130	=130	=130	=130	=130	=130	=130	=130	=130	=130	=130	=130	=130	=130	=130	=130	=130
!	!	!	!	!	!	!	!	!	!	!	!	!	!	!	!LO:N:vis=00	!LO:N:vis=00
4A\	n	2.ryy	.	4e/	(4cc\	.	.	.	.	.	4e\	a-	4cc\	qui	0.r	0.r
4r	.	.	.	4d/	4b\	.	.	.	.	.	4d\	-do-	4b\	.	.	.
4r	.	.	.	4c/	4a\)	.	.	.	.	.	4c\	.	4a\	cum	.	.
=131	=131	=131	=131	=131	=131	=131	=131	=131	=131	=131	=131	=131	=131	=131	=131	=131
4E\	7 #	2.ryy	.	4d/	4b/	.	.	.	.	.	4d\	-ra-	4b\	Pa-	.	.
4r	.	.	.	4c/	4a/	.	.	.	.	.	4c\	-tur	4a\	-tre	.	.
!LO:TX:b:t=Tutti	!	!	!	!	!	!	!	!	!	!	!	!	!	!	!	!
4r	.	.	.	4B/	4g#X/	.	.	.	.	.	4B/	.	4g#X\	et	.	.
!	!	!	!	!	!LO:PB:g=original	!	!	!	!	!	!	!	!LO:LB:g=original	!	!	!
=132	=132	=132	=132	=132	=132	=132	=132	=132	=132	=132	=132	=132	=132	=132	=132	=132
4Fn\	5_ 3_	2.ryy	.	4c/	4a/	.	2Fn\	a-	2A\	et	2c\	a-	2a\	Fi-	.	.
4F\	.	.	.	4c/	4a/	.	.	.	.	.	.	.	.	.	.	.
4F\	.	.	.	4c/	4a/	.	4F\	-do-	4A\	in	4c\	-do-	4a\	-li-	.	.
=133	=133	=133	=133	=133	=133	=133	=133	=133	=133	=133	=133	=133	=133	=133	=133	=133
4E\	.	2.ryy	.	4c/	4a/	.	4E\	-ra-	4A\	Spi-	4c\	-ra-	4a\	-o-	.	.
4E\	.	.	.	4c/	4a/	.	4E\	-tur	4A\	-ri-	4c\	-tur	4a\	-que	.	.
4E\	X X	.	.	4c/	4a/	.	4E\	et	4A\	-tum	4c\	et	4a\	pro-	.	.
=134	=134	=134	=134	=134	=134	=134	=134	=134	=134	=134	=134	=134	=134	=134	=134	=134
!	!	!	!	!	!	!	!	!	!	!	!	!	!	!	!LO:N:vis=0	!LO:N:vis=0
4D#X\	6 5	2.ryy	.	4B/	4a/	.	8D#X\L	con-	8B\	San-	8f#X\	con-	8a\L	-ce-	1.r	1.r
.	.	.	.	.	.	.	8D#\J	-glo-	8B\	-ctum	8f#\	-glo-	8a\J	-dit	.	.
4D#\	.	.	.	4B/	4a/	.	4D#\	-ri-	4B\	San-	4f#\	-ri-	4a\	si-	.	.
4D#\	.	.	.	4B/	4a/	.	4D#\	-fi-	4B\	-ctum	4f#\	.	4a\	-mul	.	.
=135	=135	=135	=135	=135	=135	=135	=135	=135	=135	=135	=135	=135	=135	=135	=135	=135
2E\	4	2.ryy	.	2B/	4a/	.	2E\	-ca-	2B\	Do-	2e\	-fi-	4a\	a-	.	.
.	3	.	.	.	8g#X/L	.	.	.	.	.	.	.	8g#X\L	-do-	.	.
.	2	.	.	.	8f#X/J	.	.	.	.	.	.	.	8f#X\J	.	.	.
4E\	#	.	.	4B/	4g#/	.	4E\	-tur	4B\	-mi-	4e\	-ca-	4g#\	-ra-	.	.
=136	=136	=136	=136	=136	=136	=136	=136	=136	=136	=136	=136	=136	=136	=136	=136	=136
!LO:TX:a:t=P:problem=mixed beam	!	!	!	!	!	!	!	!	!	!	!	!	!	!	!	!
8AA/L	.	2.ryy	.	4c/	4a/	.	4AA/	.	4c\	-num	4e\	-tur	4a\	-tur	2.r	2.r
8An\|	.	.	.	.	.	.	.	.	.	.	.	.	.	.	.	.
8G\|	.	.	.	4r	4r	.	4r	.	4r	.	4r	.	4r	.	.	.
8F\|	.	.	.	.	.	.	.	.	.	.	.	.	.	.	.	.
8E\|	.	.	.	4r	4r	.	4r	.	4r	.	4r	.	4r	.	.	.
8D\J|	.	.	.	.	.	.	.	.	.	.	.	.	.	.	.	.
!LO:LB:g=original	!	!	!	!	!	!	!LO:PB:g=original	!	!	!	!	!	!	!	!	!LO:PB:g=original
=137	=137	=137	=137	=137	=137	=137	=137	=137	=137	=137	=137	=137	=137	=137	=137	=137
!	!	!	!	!	!	!LO:DY:t=for	!	!	!	!	!	!	!	!	!	!
8C/L	5 3	2.ryy	.	2e/	2cc\	f	2c\	qui	2e\	et	2g\	qui	2cc\	et	2e/	2cc\
8GG/	.	.	.	.	.	.	.	.	.	.	.	.	.	.	.	.
8C/	.	.	.	.	.	.	.	.	.	.	.	.	.	.	.	.
8GG/	.	.	.	.	.	.	.	.	.	.	.	.	.	.	.	.
8C/	.	.	.	4e/	4cc\	.	4c\	lo-	4e\	vi-	4g\	lo-	4cc\	con-	4e/	4cc\
8GG/J	.	.	.	.	.	.	.	.	.	.	.	.	.	.	.	.
=138	=138	=138	=138	=138	=138	=138	=138	=138	=138	=138	=138	=138	=138	=138	=138	=138
!	!	!	!	!	!	!	!	!	!	!	!	!	!LO:SIC:v:s=2dd	!	!	!
8BB/L	6	2.ryy	.	2g/	2dd\	.	2G\	-cu-	2B\	-vi-	2g\	-cu-	2ee\	-glo-	2g/	2dd\
8GG/	.	.	.	.	.	.	.	.	.	.	.	.	.	.	.	.
8BB/	.	.	.	.	.	.	.	.	.	.	.	.	.	.	.	.
8GG/	.	.	.	.	.	.	.	.	.	.	.	.	.	.	.	.
8C/	5 3	.	.	4cc\	4ee\	.	4c\	-tus	4c\	-fi-	4g\	-tus	4ee\	-ri-	4cc\	4ee\
8GG/J	.	.	.	.	.	.	.	.	.	.	.	.	.	.	.	.
!	!	!	!	!	!	!	!	!	!	!	!LO:LB:g=original	!	!	!	!	!
=139	=139	=139	=139	=139	=139	=139	=139	=139	=139	=139	=139	=139	=139	=139	=139	=139
8D/L	6	2.ryy	.	4dd\	4ff\	.	4d\	est	4d\	-can-	4g\	est	4ff\	-fi-	4dd\	4ff\
8GG/	.	.	.	.	.	.	.	.	.	.	.	.	.	.	.	.
8C/	5 3	.	.	4cc\	4ee\	.	4c\	per	4c\	.	4g\	per	4ee\	.	4cc\	4ee\
8GG/	.	.	.	.	.	.	.	.	.	.	.	.	.	.	.	.
8BB/	6	.	.	4b\	4dd\	.	4B\	pro-	4B\	-tem	4g\	pro-	4dd\	.	4g/	4dd\
8GG/J	.	.	.	.	.	.	.	.	.	.	.	.	.	.	.	.
!	!	!	!	!LO:LB:g=original	!	!	!	!	!	!	!	!	!	!	!	!
=140	=140	=140	=140	=140	=140	=140	=140	=140	=140	=140	=140	=140	=140	=140	=140	=140
4C/	.	2.ryy	.	4cc\	4ee\	.	4c\	-phe-	4c\	qui	4g\	-phe-	4ee\	-ca-	4cc\	4ee\
4GG/	.	.	.	4b\	4dd\	.	4G\	-tas	4B\	ex	4g\	-tas	4dd\	-tur	4g/	4dd\
4r	.	.	.	4dd\	8ee\L	.	4r	.	4r	.	4r	.	4r	.	4r	4r
.	.	.	.	.	8gg\J	.	.	.	.	.	.	.	.	.	.	.
=141	=141	=141	=141	=141	=141	=141	=141	=141	=141	=141	=141	=141	=141	=141	=141	=141
!LO:TX:a:t=2	!	!	!	!	!	!	!LO:TX:a:t=2	!	!LO:TX:a:t=2	!	!LO:TX:a:t=2	!	!LO:TX:a:t=2	!	!LO:TX:a:t=4	!LO:TX:a:t=4
!LO:N:vis=0	!	!	!	!	!	!	!LO:N:vis=0	!	!LO:N:vis=0	!	!LO:N:vis=0	!	!LO:N:vis=0	!	!LO:N:vis=00	!LO:N:vis=00
1.r	.	2.ryy	.	4a/	4ff\	.	1.r	.	1.r	.	1.r	.	1.r	.	0.r	0.r
.	.	.	.	4g/	4ee\	.	.	.	.	.	.	.	.	.	.	.
.	.	.	.	4f/	4dd\	.	.	.	.	.	.	.	.	.	.	.
=142	=142	=142	=142	=142	=142	=142	=142	=142	=142	=142	=142	=142	=142	=142	=142	=142
.	.	2.ryy	.	4e/	8cc\L	.	.	.	.	.	.	.	.	.	.	.
.	.	.	.	.	8ee\J	.	.	.	.	.	.	.	.	.	.	.
.	.	.	.	4g/	4dd\	.	.	.	.	.	.	.	.	.	.	.
.	.	.	.	4r	4r	.	.	.	.	.	.	.	.	.	.	.
=143	=143	=143	=143	=143	=143	=143	=143	=143	=143	=143	=143	=143	=143	=143	=143	=143
4A\	6	2.ryy	.	4cc\	4ff\	.	4A\	et	4f\	Pa-	4cc\	et	4ff\	qui	.	.
4G\	6	.	.	4b\	4ee\	.	4G\	u-	4e\	-tre	4b\	u-	4ee\	lo-	.	.
4F\	6	.	.	4a\	4dd\	.	4F\	-nam	4d\	Fi-	4a\	-nam	4dd\	-cu-	.	.
!	!	!	!	!	!LO:LB:g=original	!	!	!	!LO:LB:g=original	!	!	!	!LO:LB:g=original	!	!	!
=144	=144	=144	=144	=144	=144	=144	=144	=144	=144	=144	=144	=144	=144	=144	=144	=144
4F\	4 2	2.ryy	.	4d/	4dd\	.	4F\	San-	4B\	-li-	4g\	San-	4dd\	-tus	.	.
4E\	6	.	.	4g/	8cc\L	.	4E\	-ctam	4c\	-o-	4g\	-ctam	4cc\	est	.	.
.	.	.	.	.	8gg\	.	.	.	.	.	.	.	.	.	.	.
4r	.	.	.	4r	8ee\	.	4r	.	4r	.	4r	.	4r	.	.	.
.	.	.	.	.	8cc\J	.	.	.	.	.	.	.	.	.	.	.
=145	=145	=145	=145	=145	=145	=145	=145	=145	=145	=145	=145	=145	=145	=145	=145	=145
*tremolo	*	*	*	*tremolo	*tremolo	*	*	*	*	*	*	*	*	*	*	*
8G\L	5 3	2.ryy	.	8b\L	8dd\L	.	2.G\	Ca-	2.B\	-que	2.g\	Ca-	2.dd\	et	2g/	2.dd\
8G\	.	.	.	8b\	8dd\	.	.	.	.	.	.	.	.	.	.	.
8G\	.	.	.	8b\	8dd\	.	.	.	.	.	.	.	.	.	.	.
8G\	.	.	.	8b\	8dd\	.	.	.	.	.	.	.	.	.	.	.
8G\	.	.	.	8b\	8dd\	.	.	.	.	.	.	.	.	.	4g/	.
8G\J	.	.	.	8b\J	8dd\J	.	.	.	.	.	.	.	.	.	.	.
=146	=146	=146	=146	=146	=146	=146	=146	=146	=146	=146	=146	=146	=146	=146	=146	=146
8G\L	6 4	2.ryy	.	8cc\L	8ee\L	.	4.G\	-tho-	4.c\	pro-	4.g\	-tho-	4.ee\	u-	2.cc\	2.ee\
8G\	.	.	.	8cc\	8ee\	.	.	.	.	.	.	.	.	.	.	.
8G\	.	.	.	8cc\	8ee\	.	.	.	.	.	.	.	.	.	.	.
8G\	.	.	.	8cc\	8ee\	.	8G\	-li-	8c\	-ce-	8g\	-li-	8ee\	-nam	.	.
8G\	.	.	.	8cc\	8ee\	.	8G\L	-cam	8c\	-dit	8g\	-cam	8ee\	San-	.	.
8G\J	.	.	.	8cc\J	8ee\J	.	8G\J	Eccle-	8c\	que	8g\	et	8ee\	-ctam	.	.
*	*	*	*	*	*Xtremolo	*	*	*	*	*	*	*	*	*	*	*
=147	=147	=147	=147	=147	=147	=147	=147	=147	=147	=147	=147	=147	=147	=147	=147	=147
4G\	7_ 5_	2.ryy	.	8dd\L	8ff\L	.	8G\	-si-	8B\	pro-	8g\L	A-	8ff\	Ca-	4dd\	4ff\
.	.	.	.	8dd\	8ff\	.	8G\	-am	8B\	-ce-	8g\	-po-	8ff\	-tho-	.	.
!	!	!	!	!	!	!	!LO:LB:g=original	!	!	!	!	!	!	!	!	!
4B\	.	.	.	8dd\	8ff\	.	8B\	con-	8d\	-dit	8g\	-sto-	8ff\	-li-	4dd\	4ff\
.	.	.	.	8dd\	8ff\	.	8B\	-fi-	8d\	Pa-	8g\	-li-	8ff\	-cam	.	.
!	!	!	!	!	!	!	!LO:SIC:v:l:s=-te-	!	!	!	!	!	!	!	!	!
4c\	5 3	.	.	8dd\	8ee\	.	8c\	-le-	8e\	-tre	8g\	-cam	8ee\	A-	4cc\	4ee\
.	.	.	.	8dd\J	8ee\J	.	8c\	-or	8e\	et	8g\J	Ec-	8ee\	-po-	.	.
*	*	*	*	*Xtremolo	*	*	*	*	*	*	*	*	*	*	*	*
=148	=148	=148	=148	=148	=148	=148	=148	=148	=148	=148	=148	=148	=148	=148	=148	=148
!	!	!	!	!	!LO:TX:a:t=P:problem=mixed beam	!	!	!	!	!	!	!	!	!	!LO:SIC:v:s=4cc	!
4G\	4	2.ryy	.	8cc\L	8ee\L	.	8G\	bap-	8c\	Fi-	8g\	-cle-	8ee\	-sto-	4dd\	4ee\
!	!	!	!	!	!LO:SIC:v:s=8dd	!	!	!	!	!	!	!	!	!	!	!
.	.	.	.	8b\J	8ee\	.	8G\	-tis-	8B\	-li-	8g\	-si-	8dd\	-li-	.	.
4GG/	3	.	.	4b\	8dd\	.	4G\	-ma	4B\	-o	4g\	-am	4dd\	-cam	4g/	4dd\
.	.	.	.	.	8g/	.	.	.	.	.	.	.	.	.	.	.
4r	.	.	.	4r	8b/	.	4r	.	4r	.	4r	.	4r	.	4ryy	4ryy
.	.	.	.	.	8dd/J	.	.	.	.	.	.	.	.	.	.	.
=149	=149	=149	=149	=149	=149	=149	=149	=149	=149	=149	=149	=149	=149	=149	=149	=149
!	!	!LO:N:vis=2	!	!	!	!	!	!	!	!	!	!	!	!	!	!
8G\L	5_ 3_	2.ryy	.	2b\	2gg\	.	2.G\	Con-	2.d\	Con-	2.b\	con-	2gg\	Ec-	2g/	2dd\
8G\	.	.	.	.	.	.	.	.	.	.	.	.	.	.	.	.
8G\	.	.	.	.	.	.	.	.	.	.	.	.	.	.	.	.
8G\	.	.	.	.	.	.	.	.	.	.	.	.	.	.	.	.
8G\	.	.	.	4b\	4dd\	.	.	.	.	.	.	.	4dd\	-cle-	4g/	4dd\
8G\J	.	.	.	.	.	.	.	.	.	.	.	.	.	.	.	.
!LO:LB:g=original	!	!	!	!	!	!	!	!	!	!	!	!	!	!	!LO:LB:g=original	!
=150	=150	=150	=150	=150	=150	=150	=150	=150	=150	=150	=150	=150	=150	=150	=150	=150
8G\L	.	2.ryy	.	4.g/	4.b\	.	4.G\	-fi-	4.d\	-fi-	4.g\	-fi-	4.b\	-si-	4g/	4dd\
8G\	.	.	.	.	.	.	.	.	.	.	.	.	.	.	.	.
8G\	.	.	.	.	.	.	.	.	.	.	.	.	.	.	4r	4r
!	!	!	!	!	!	!	!	!	!LO:SIC:v:l:s=-te-	!	!	!	!	!	!	!
8G\	.	.	.	8a/	8cc\	.	8G\	-te-	8d\	-le-	8a\	-te-	8cc\	.	.	.
8G\	.	.	.	4b/	4dd\	.	4G\	-or	4d\	-or	4b\	-or	4dd\	-am	4r	4r
8G\J	X X	.	.	.	.	.	.	.	.	.	.	.	.	.	.	.
!	!	!	!	!	!	!	!	!	!	!	!	!	!	!	!	!LO:LB:g=original
=151	=151	=151	=151	=151	=151	=151	=151	=151	=151	=151	=151	=151	=151	=151	=151	=151
!	!	!	!	!	!	!	!	!	!	!	!	!	!	!	!LO:TX:a:t=6	!LO:TX:a:t=6
.	.	.	.	.	8qqdd/	.	.	.	.	.	.	.	.	.	.	.
!	!	!	!	!	!	!	!	!	!	!	!	!	!	!	!LO:N:vis=00	!LO:N:vis=00
4C/	6	2.ryy	.	4a/	4cc\	.	4C/	u-	4e\	u-	4a\	u-	4cc\	con-	0.r	0.r
4D/	+4r	.	.	4g/	4b\	.	4D/	-num	4d\	.	4g\	-num	4b\	.	.	.
!	!	!	!	!LO:SIC:v:s=4f#	!	!	!	!	!	!	!	!	!	!	!	!
4D/	3	.	.	4f/	4a\	.	4D/	bap-	4d\	-num	4f#X\	ba-	4a\	-fi-	.	.
!	!	!	!	!	!	!	!	!	!LO:LB:g=original	!	!LO:LB:g=original	!	!LO:PB:g=original	!	!	!
=152	=152	=152	=152	=152	=152	=152	=152	=152	=152	=152	=152	=152	=152	=152	=152	=152
8G\L	.	2.ryy	.	4.g/	4.b\	.	2G\	-tis-	2d\	bap-	4.g\	-ptis-	4.b\	-te-	.	.
8G\	.	.	.	.	.	.	.	.	.	.	.	.	.	.	.	.
8G\	.	.	.	.	.	.	.	.	.	.	.	.	.	.	.	.
8G\	.	.	.	8a/	8cc\	.	.	.	.	.	8a\	.	8cc\	-or	.	.
!	!	!	!	!	!	!	!	!	!LO:SIC:v:l:s=-tis-	!	!	!	!	!	!	!
8G\	.	.	.	4b/	4dd\	.	4G\	-ma	4d\	-lis-	4b\	-ma	4dd\	u-	.	.
8G\J	.	.	.	.	.	.	.	.	.	.	.	.	.	.	.	.
=153	=153	=153	=153	=153	=153	=153	=153	=153	=153	=153	=153	=153	=153	=153	=153	=153
.	.	.	.	.	8qqdd/	.	.	.	.	.	.	.	.	.	.	.
4C/	6	2.ryy	.	4a/	4cc\	.	8C/	in	8e\	-ma	8a\	in	8cc\	-num	.	.
.	.	.	.	.	.	.	8C/	re-	8e\	in	8a\	re-	8cc\	bap-	.	.
4D/	4	.	.	4g/	4b\	.	4D/	-mi-	4d\	re-	8g\	-miſ-	4b\	-tis-	.	.
.	.	.	.	.	.	.	.	.	.	.	8g\	-si-	.	.	.	.
!	!	!	!	!LO:SIC:v:s=4f#	!	!	!	!	!LO:SIC:v:l:s=-mis-	!	!LO:SIC:v:s=4f#	!	!	!	!	!
4D/	#	.	.	4f/	4a\	.	4D/	-si-	4d\	-mi-	4f\	-o-	4a\	.	.	.
=154	=154	=154	=154	=154	=154	=154	=154	=154	=154	=154	=154	=154	=154	=154	=154	=154
8G\L	.	2.ryy	.	4.g/	4.b\	.	2G\	-o-	2d\	-si-	4.g\	-nem	4.b\	-ma	.	.
8G\	.	.	.	.	.	.	.	.	.	.	.	.	.	.	.	.
8G\	.	.	.	.	.	.	.	.	.	.	.	.	.	.	.	.
8G\	.	.	.	8a/	8cc\	.	.	.	.	.	8a\	mor-	8cc\	in	.	.
8G\	.	.	.	4b/	4dd\	.	4G\	-nem	4d\	-o-	4b\	-tu-	4dd\	re-	.	.
8G\J	.	.	.	.	.	.	.	.	.	.	.	.	.	.	.	.
!	!	!	!	!	!	!	!LO:LB:g=original	!	!	!	!	!	!	!	!	!
=155	=155	=155	=155	=155	=155	=155	=155	=155	=155	=155	=155	=155	=155	=155	=155	=155
!	!	!	!	!	!	!	!	!	!	!	!	!	!LO:SIC:v:l:s=-mis-	!	!	!
.	.	.	.	.	8qqdd/	.	.	.	.	.	.	.	.	.	.	.
!	!	!	!	!	!	!	!	!	!	!	!	!	!	!	!LO:N:vis=00	!LO:N:vis=0
4C/	6	2.ryy	.	4a/	4cc\	.	4C/	pec-	4e\	-nem	4a\	-o-	4dd\	-mi-	1.r	1.r
4D/	4	.	.	4g/	4b\	.	4D/	.	4d\	pec-	4g\	-rum	4b\	-si-	.	.
!	!	!	!	!LO:SIC:v:s=4f#	!	!	!	!	!	!	!	!	!	!	!	!
4D/	#	.	.	4f/	4a\	.	4D/	-ca-	4c\	-ca-	4f#X\	et	4a\	-o-	.	.
!	!	!	!	!LO:LB:g=original	!LO:LB:g=original	!	!	!	!	!	!	!	!	!	!	!
=156	=156	=156	=156	=156	=156	=156	=156	=156	=156	=156	=156	=156	=156	=156	=156	=156
4G\	.	2.ryy	.	8d/L	8b/L	.	4G\	-to-	4B\	-to-	4d\	vi-	8b\L	.	.	.
.	.	.	.	8c/J	8a/J	.	.	.	.	.	.	.	8a\J	.	.	.
8G\L|	.	.	.	4B/	4g/	.	4G\	-rum	4B\	-rum	4d\	-tam	4g\	-nem	.	.
8F\|	.	.	.	.	.	.	.	.	.	.	.	.	.	.	.	.
8E\|	.	.	.	4r	4r	.	4r	.	4r	.	4r	.	4r	.	.	.
8D\J|	.	.	.	.	.	.	.	.	.	.	.	.	.	.	.	.
=157	=157	=157	=157	=157	=157	=157	=157	=157	=157	=157	=157	=157	=157	=157	=157	=157
8C/L	.	2.ryy	.	2ee\	2ccc\	.	2c\	et	2e\	Et	2g\	et	2gg\	pec-	2ee\	2gg\
8C/	.	.	.	.	.	.	.	.	.	.	.	.	.	.	.	.
8C/	.	.	.	.	.	.	.	.	.	.	.	.	.	.	.	.
8C/	.	.	.	.	.	.	.	.	.	.	.	.	.	.	.	.
8C/	.	.	.	4ee\	4gg\	.	4c\	ex-	4e\	ex-	4g\	ex-	4gg\	-ca-	4ee\	4gg\
8C/J	.	.	.	.	.	.	.	.	.	.	.	.	.	.	.	.
=158	=158	=158	=158	=158	=158	=158	=158	=158	=158	=158	=158	=158	=158	=158	=158	=158
8C/L	.	2.ryy	.	4.cc\	4.ee\	.	2c\	-pe-	4.c\	-pe-	2g\	-pe-	4.ee\	-to-	4.cc\	4.ee\
8C/	.	.	.	.	.	.	.	.	.	.	.	.	.	.	.	.
8C/	.	.	.	.	.	.	.	.	.	.	.	.	.	.	.	.
8C/	.	.	.	8dd\	8ff\	.	.	.	8d\	.	.	.	8ff\	.	8dd\	8ff\
8C/	.	.	.	4ee\	4gg\	.	4c\	-cto	4e\	-cto	4g\	-cto	4gg\	-tum	4ee\	4gg\
8C/J	.	.	.	.	.	.	.	.	.	.	.	.	.	.	.	.
=159	=159	=159	=159	=159	=159	=159	=159	=159	=159	=159	=159	=159	=159	=159	=159	=159
.	.	.	.	.	8qqgg/	.	.	.	.	.	.	.	.	.	.	.
4F\	6	2.ryy	.	4dd\	4ff\	.	8F\	re-	8d\	re-	8a\	re-	8ff\	pec-	4dd\	4ff\
.	.	.	.	.	.	.	8F\	-sur-	8d\	-sur-	8a\	-sur-	8ff\	-ca-	.	.
4G\	4	.	.	4cc\	4ee\	.	4G\	-re-	4c\	-re-	4g\	-re-	4ee\	-to-	4cc\	4ee\
4G\	3	.	.	4b\	4dd\	.	4G\	-cti-	4B\	-cti-	4g\	-cti-	4dd\	-rum	4g\	4dd\
=160	=160	=160	=160	=160	=160	=160	=160	=160	=160	=160	=160	=160	=160	=160	=160	=160
8C/L	.	2.ryy	.	4.cc\	4.ee\	.	2c\	-o-	4.c\	-o-	2g\	-o-	4.ee\	et	4.cc\	4.ee\
8C/	.	.	.	.	.	.	.	.	.	.	.	.	.	.	.	.
8C/	.	.	.	.	.	.	.	.	.	.	.	.	.	.	.	.
8C/	.	.	.	8dd\	8ff\	.	.	.	8d\	.	.	.	8ff\	.	8dd\	8ff\
8C/	.	.	.	4ee\	4gg\	.	4c\	-nem	4e\	-nem	4g\	-nem	4gg\	ex-	4ee\	4gg\
8C/J	.	.	.	.	.	.	.	.	.	.	.	.	.	.	.	.
!	!	!	!	!	!	!	!	!	!	!	!	!	!LO:LB:g=original	!	!	!
=161	=161	=161	=161	=161	=161	=161	=161	=161	=161	=161	=161	=161	=161	=161	=161	=161
.	.	.	.	.	8qqgg/	.	.	.	.	.	.	.	.	.	.	.
4F\	6	2.ryy	.	4dd\	4ff\	.	4F\	mor-	4d\	mor-	4a\	mor-	4ff\	-pe-	4dd\	4ff\
4G\	4	.	.	4cc\	4ee\	.	4G\	.	4c\	.	4g\	-tu-	4ee\	-cto	4cc\	4ee\
4G\	3	.	.	4b\	4dd\	.	4G\	-tu-	4B\	-tu-	4g\	-o-	4dd\	.	4g\	4dd\
!	!	!	!	!	!	!	!	!	!LO:LB:g=original	!	!	!	!	!	!	!
=162	=162	=162	=162	=162	=162	=162	=162	=162	=162	=162	=162	=162	=162	=162	=162	=162
8C/L	.	2.ryy	.	4.cc\	4.ee\	.	2c\	-o-	4.c\	-o-	2g\	-rum	4.ee\	re-	4.cc\	4.ee\
8C/	.	.	.	.	.	.	.	.	.	.	.	.	.	.	.	.
8C/	.	.	.	.	.	.	.	.	.	.	.	.	.	.	.	.
8C/	.	.	.	8dd\	8ff\	.	.	.	8d\	.	.	.	8ff\	.	8dd\	8ff\
8C/	.	.	.	4ee\	4gg\	.	4c\	-rum	4e\	-rum	4g\	.	4gg\	-sur-	4ee\	4gg\
8C/J	.	.	.	.	.	.	.	.	.	.	.	.	.	.	.	.
*Xtremolo	*	*	*	*	*	*	*	*	*	*	*	*	*	*	*	*
*Xtremolo	*	*	*	*	*	*	*	*	*	*	*	*	*	*	*	*
!	!	!	!	!	!	!	!	!	!	!	!LO:LB:g=original	!	!	!	!	!
=163	=163	=163	=163	=163	=163	=163	=163	=163	=163	=163	=163	=163	=163	=163	=163	=163
.	.	.	.	.	8qqgg/	.	.	.	.	.	.	.	.	.	.	.
4F\	6	2.ryy	.	4dd\	4ff\	.	4F\	mor-	4d\	mor-	4a\	mor-	4ff\	-re-	4dd\	4ff\
4G\	4	.	.	4cc\	4ee\	.	4G\	.	4c\	.	4g\	-tu-	4ee\	-cti-	4cc\	4ee\
.	3	.	.	.	.	.	.	.	.	.	.	.	.	.	.	.
4GG/	.	.	.	4b\	4dd\	.	4G\	-tu-	4B\	-tu-	4g\	-o-	4dd\	.	4g\	4dd\
!LO:LB:g=original	!	!	!	!	!	!	!	!	!	!	!	!	!	!	!	!
=164	=164	=164	=164	=164	=164	=164	=164	=164	=164	=164	=164	=164	=164	=164	=164	=164
4c\	.	2.r	.	4cc\	4ee\	.	4c\	-o-	4c\	-o-	4g\	-rum	4ee\	-o-	4cc\	4ee\
4G\	.	.	.	4b\	4dd\	.	4G\	-rum	4B\	-rum	4g\	.	4dd\	-nem	4g\	4dd\
4r	.	.	.	4r	4r	.	4r	.	4r	.	4r	.	4r	.	4r	4r
!	!	!	!	!	!	!	!LO:LB:g=original	!	!	!	!	!	!	!	!	!
=165	=165	=165	=165	=165	=165	=165	=165	=165	=165	=165	=165	=165	=165	=165	=165	=165
*clefC1	*	*	*	*	*	*	*	*	*	*	*	*	*	*	*	*
!	!	!LO:TX:b:t=Solo.	!	!	!	!	!LO:TX:a:t=4	!	!LO:TX:a:t=4	!	!LO:TX:a:t=4	!	!LO:TX:a:t=4	!	!LO:TX:a:t=4	!LO:TX:a:t=4
!	!	!	!	!	!	!	!LO:N:vis=00	!	!LO:N:vis=00	!	!LO:N:vis=00	!	!LO:N:vis=00	!	!LO:N:vis=00	!LO:N:vis=00
8B/L	.	4gg\	.	4g/	4dd\	.	0.r	.	0.r	.	0.r	.	0.r	.	0.r	0.r
8g/	.	.	.	.	.	.	.	.	.	.	.	.	.	.	.	.
8B/	.	8dd\L	.	4g/	4dd\	.	.	.	.	.	.	.	.	.	.	.
8g/	.	8ee\	.	.	.	.	.	.	.	.	.	.	.	.	.	.
8B/	.	8ff\	.	4g/	4dd\	.	.	.	.	.	.	.	.	.	.	.
8g/J	.	8dd\J	.	.	.	.	.	.	.	.	.	.	.	.	.	.
=166	=166	=166	=166	=166	=166	=166	=166	=166	=166	=166	=166	=166	=166	=166	=166	=166
8c/L	.	8ee\L	.	4g/	4ee\	.	.	.	.	.	.	.	.	.	.	.
8g/	.	8cc\J	.	.	.	.	.	.	.	.	.	.	.	.	.	.
8B/	.	2dd\	.	4g/	4dd\	.	.	.	.	.	.	.	.	.	.	.
8g/	.	.	.	.	.	.	.	.	.	.	.	.	.	.	.	.
8B/	.	.	.	4g/	4dd\	.	.	.	.	.	.	.	.	.	.	.
8g/J	.	.	.	.	.	.	.	.	.	.	.	.	.	.	.	.
=167	=167	=167	=167	=167	=167	=167	=167	=167	=167	=167	=167	=167	=167	=167	=167	=167
8B/L	.	8gg\L	.	4g/	4dd\	.	.	.	.	.	.	.	.	.	.	.
8g/	.	8aa\	.	.	.	.	.	.	.	.	.	.	.	.	.	.
8B/	.	8gg\	.	4g/	4dd\	.	.	.	.	.	.	.	.	.	.	.
8g/	.	8ff\	.	.	.	.	.	.	.	.	.	.	.	.	.	.
8B/	.	8ee\	.	4g/	4dd\	.	.	.	.	.	.	.	.	.	.	.
8g/J	.	8dd\J	.	.	.	.	.	.	.	.	.	.	.	.	.	.
=168	=168	=168	=168	=168	=168	=168	=168	=168	=168	=168	=168	=168	=168	=168	=168	=168
8c/L	.	8ee\L	.	4g/	4ee\	.	.	.	.	.	.	.	.	.	.	.
8g/	.	8cc\J	.	.	.	.	.	.	.	.	.	.	.	.	.	.
8B/	.	2dd\	.	4g/	4dd\	.	.	.	.	.	.	.	.	.	.	.
8g/	.	.	.	.	.	.	.	.	.	.	.	.	.	.	.	.
8B/	.	.	.	4g/	4dd\	.	.	.	.	.	.	.	.	.	.	.
8g/J	.	.	.	.	.	.	.	.	.	.	.	.	.	.	.	.
!	!	!	!	!	!LO:LB:g=original	!	!	!	!	!	!	!	!	!	!LO:PB:g=original	!
=169	=169	=169	=169	=169	=169	=169	=169	=169	=169	=169	=169	=169	=169	=169	=169	=169
*clefF4	*	*	*	*	*	*	*	*	*	*	*	*	*	*	*	*
4C\	.	2.ryy	.	4e/	4cc\	.	4C/	Et	4G/	Et	4e\	Et	4cc\	mor-	4e/	4cc\
4E\	6	.	.	4g/	4cc\	.	4E/	vi-	4G/	vi-	4e\	vi-	4cc\	-tu-	4e/	4cc\
4G\	.	.	.	4b/	4dd\	.	4G/	-tam	4B/	-tam	4g\	-tam	4dd\	.	4g/	4dd\
!	!	!	!	!	!	!	!	!	!	!	!	!	!	!	!	!LO:LB:g=original
=170	=170	=170	=170	=170	=170	=170	=170	=170	=170	=170	=170	=170	=170	=170	=170	=170
2c\	.	2.ryy	.	4.cc\	4.ee\	.	4c\	vi-	4.c\	ven-	2g\	vi-	4.ee\	-o-	4.cc\	4.ee\
.	.	.	.	.	.	.	2C/	-tam	.	.	.	.	.	.	.	.
.	.	.	.	8dd\	8ff\	.	.	.	8d\	-tu-	.	.	8ff\	.	8dd\	8ff\
4C/	.	.	.	4ee\	4gg\	.	.	.	4e\	-ri	4g\	-tam	4gg\	-rum	4ee\	4gg\
!	!	!	!	!LO:LB:g=original	!	!	!	!	!	!	!	!	!	!	!	!
=171	=171	=171	=171	=171	=171	=171	=171	=171	=171	=171	=171	=171	=171	=171	=171	=171
!	!	!	!	!	!	!	!	!	!LO:SIC:v:l:s=sae-	!	!	!	!	!	!	!
4C\	.	2.ryy	.	4e/	4cc\	.	4C/	ven-	4G/	se-	4e\	ven-	4cc\	et	4e/	4cc\
4E\	6	.	.	4g/	4cc\	.	4E/	-tu-	4G/	-cu-	4e\	-tu-	4cc\	vi-	4e/	4cc\
4G\	.	.	.	4b/	4dd\	.	4G/	-ri	4B\	-li	4g\	-ri	4dd\	-tam	4g/	4dd\
=172	=172	=172	=172	=172	=172	=172	=172	=172	=172	=172	=172	=172	=172	=172	=172	=172
!	!	!	!	!	!	!	!LO:SIC:v:l:s=sae-	!	!LO:SIC:v:l:s=sae-	!	!LO:SIC:v:l:s=ſae-	!	!	!	!	!
2c\	.	2.ryy	.	4.cc\	4.ee\	.	4c\	ſe-	4.c\	se-	4.g\	ſe-	4.ee\	ven-	4.cc\	4.ee\
.	.	.	.	.	.	.	4c\	-cu-	.	.	.	.	.	.	.	.
.	.	.	.	8dd\	8ff\	.	.	.	8d\	-cu-	8g\	-cu-	8ff\	-tu-	8dd\	8ff\
4C/	.	.	.	4ee\	4gg\	.	4C/	-li	4e\	-li	4g\	-li	4gg\	-ri	4ee\	4gg\
=173	=173	=173	=173	=173	=173	=173	=173	=173	=173	=173	=173	=173	=173	=173	=173	=173
!LO:SIC:v:s=4FF	!	!	!	!LO:SIC:v:s=4cc	!	!	!	!	!	!	!	!	!LO:SIC:v:l:s=ſaecu-	!	!LO:TX:a:t=1	!LO:TX:a:t=1
4G\	.	2.ryy	.	4b\	4aa\	.	4F\	A-	4c\	A-	4cc\	A-	4aa\	ſecu-	2.r	2.r
4C/	.	.	.	4ee\	4gg\	.	4C/	-men	4e\	-men	4cc\	-men	4gg\	-li	.	.
4r	.	.	.	4r	4r	.	4ryy	.	4r	.	4r	.	4r	.	.	.
!LO:LB:g=original	!	!LO:LB:g=original	!	!	!	!	!	!	!	!	!	!	!	!	!	!
=174	=174	=174	=174	=174	=174	=174	=174	=174	=174	=174	=174	=174	=174	=174	=174	=174
4G\	.	2.ryy	.	4b/	4ff\	.	4G\	A-	4d\	A-	4b\	A-	4ff\	A-	4g/	4dd\
4C/	.	.	.	4g/	4ee\	.	4C/	-men	4c\	-men	4g\	-men	4ee\	-men	4cc\	4ee\
4r	.	.	.	4r	4r	.	4r	.	4r	.	4r	.	4r	.	4r	4r
!	!	!	!	!	!	!	!	!	!LO:LB:g=original	!	!	!	!LO:LB:g=original	!	!	!
=175	=175	=175	=175	=175	=175	=175	=175	=175	=175	=175	=175	=175	=175	=175	=175	=175
!LO:TX:a:t=2	!	!	!	!	!	!	!LO:TX:a:t=2	!	!LO:TX:a:t=2	!	!LO:TX:a:t=2	!	!LO:TX:a:t=2	!	!LO:TX:a:t=3	!LO:TX:a:t=3
!LO:N:vis=0	!	!	!	!	!	!	!LO:N:vis=0	!	!LO:N:vis=0	!	!LO:N:vis=0	!	!LO:N:vis=0	!	!LO:N:vis=0	!LO:N:vis=0
1.r	.	2.ryy	.	8cc'/L	8ccc'\L	.	1.r	.	1.r	.	1.r	.	1.r	.	1.r	1.r
.	.	.	.	8b'/	8bb'\	.	.	.	.	.	.	.	.	.	.	.
.	.	.	.	8a'/	8aa'\	.	.	.	.	.	.	.	.	.	.	.
.	.	.	.	8g'/	8gg'\	.	.	.	.	.	.	.	.	.	.	.
.	.	.	.	8f'/	8ff'\	.	.	.	.	.	.	.	.	.	.	.
.	.	.	.	8e'/J	8ee'\J	.	.	.	.	.	.	.	.	.	.	.
=176	=176	=176	=176	=176	=176	=176	=176	=176	=176	=176	=176	=176	=176	=176	=176	=176
.	.	2.ryy	.	8a'/L	8aa'\L	.	.	.	.	.	.	.	.	.	.	.
.	.	.	.	8g'/	8gg'\	.	.	.	.	.	.	.	.	.	.	.
.	.	.	.	8f'/	8ff'\	.	.	.	.	.	.	.	.	.	.	.
.	.	.	.	8e'/	8ee'\	.	.	.	.	.	.	.	.	.	.	.
.	.	.	.	8d'/	8dd'\	.	.	.	.	.	.	.	.	.	.	.
.	.	.	.	8c'/J	8cc'\J	.	.	.	.	.	.	.	.	.	.	.
=177	=177	=177	=177	=177	=177	=177	=177	=177	=177	=177	=177	=177	=177	=177	=177	=177
4F\	6	2.ryy	.	4d/	8f/L	.	4F\	A-	4d\	Et	4a\	A-	4dd\	Et	2.r	2.r
.	.	.	.	.	8dd/	.	.	.	.	.	.	.	.	.	.	.
4G\	4	.	.	4c/	8e/	.	4G\	.	4c\	vi-	4e\	.	4cc\	vi-	.	.
.	.	.	.	.	8cc/	.	.	.	.	.	.	.	.	.	.	.
4GG/	3	.	.	4B/	8d/	.	4GG/	-men	4d\	.	4g\	-men	4b\	-tam	.	.
.	.	.	.	.	8b/J	.	.	.	.	.	.	.	.	.	.	.
=178	=178	=178	=178	=178	=178	=178	=178	=178	=178	=178	=178	=178	=178	=178	=178	=178
*	*	*	*	*tremolo	*	*	*	*	*	*	*	*	*	*	*	*
2.C 2.GG 2.CC/	.	2.ryy	.	8e 8G/L	4cc\	.	2.C/	A-	2.e\	-tam	2.g\	A-	4cc\	ven-	4e/	4cc\
.	.	.	.	8e 8G/	.	.	.	.	.	.	.	.	.	.	.	.
.	.	.	.	8e 8G/	4g\	.	.	.	.	.	.	.	4g\	-tu-	4r	4r
.	.	.	.	8e 8G/	.	.	.	.	.	.	.	.	.	.	.	.
.	.	.	.	8e 8G/	4ee\	.	.	.	.	.	.	.	4ee\	-ri	4r	4r
.	.	.	.	8e 8G/J	.	.	.	.	.	.	.	.	.	.	.	.
=179	=179	=179	=179	=179	=179	=179	=179	=179	=179	=179	=179	=179	=179	=179	=179	=179
2.C 2.GG 2.CC/	.	2.ryy	.	8e 8G/L	4cc\	.	2.C/	-men	2.e\	ven-	2.g\	-men	4cc\	ven-	4e/	4cc\
.	.	.	.	8e 8G/	.	.	.	.	.	.	.	.	.	.	.	.
.	.	.	.	8e 8G/	4g\	.	.	.	.	.	.	.	4g\	-tu-	4r	4r
.	.	.	.	8e 8G/	.	.	.	.	.	.	.	.	.	.	.	.
.	.	.	.	8e 8G/	4gg\	.	.	.	.	.	.	.	4gg\	-ri	4r	4r
.	.	.	.	8e 8G/J	.	.	.	.	.	.	.	.	.	.	.	.
*	*	*	*	*Xtremolo	*	*	*	*	*	*	*	*	*	*	*	*
!	!	!	!	!	!LO:LB:g=original	!	!	!	!	!	!	!	!	!	!	!
=180	=180	=180	=180	=180	=180	=180	=180	=180	=180	=180	=180	=180	=180	=180	=180	=180
!	!	!	!	!	!	!	!	!	!	!	!	!	!LO:SIC:v:l:s=sae-	!	!	!
2.C 2.GG 2.CC/	.	2.ryy	.	2.e 2.G/	4cc\	.	2.C/	A-	2.e\	-tu-	2.g\	A-	4cc\	se-	4e/	4cc\
.	.	.	.	.	4g\	.	.	.	.	.	.	.	4g\	.	4r	4r
.	.	.	.	.	4ee\	.	.	.	.	.	.	.	4ee\	-cu-	4r	4r
!	!	!	!	!	!	!	!LO:LB:g=original	!	!	!	!LO:LB:g=original	!	!	!	!	!
=181	=181	=181	=181	=181	=181	=181	=181	=181	=181	=181	=181	=181	=181	=181	=181	=181
2.C 2.GG 2.CC/	.	4r	.	2.e 2.G/	4cc\	.	4C/	-men	4e\	-ri	4g\	-men	4cc\	-li	4e/	4cc\
.	.	4r	.	.	8ee\L	.	4r	.	4r	.	4r	.	4r	.	4r	4r
.	.	.	.	.	8gg\J	.	.	.	.	.	.	.	.	.	.	.
.	.	4g\	.	.	4g/	.	4r	.	4r	.	4r	.	4r	.	4r	4r
=182	=182	=182	=182	=182	=182	=182	=182	=182	=182	=182	=182	=182	=182	=182	=182	=182
!LO:TX:b:t=pedale.	!	!LO:TX:b:t=Solo.	!	!	!	!LO:DY:t=piano.	!LO:TX:a:t=11	!	!LO:TX:a:t=11	!	!LO:TX:a:t=11.	!	!LO:TX:a:t=11	!	!LO:TX:a:t=11	!LO:TX:a:t=11
!	!	!	!	!	!	!	!LO:N:vis=00	!	!LO:N:vis=00	!	!LO:N:vis=00	!	!LO:N:vis=00	!	!LO:N:vis=00	!LO:N:vis=00
2.C/	.	8cc\L	.	4G/	4e/	p	0.r	.	0.r	.	0.r	.	0.r	.	0.r	0.r
.	.	8b\	.	.	.	.	.	.	.	.	.	.	.	.	.	.
.	.	8cc\	.	4G/	4e/	.	.	.	.	.	.	.	.	.	.	.
.	.	8g\	.	.	.	.	.	.	.	.	.	.	.	.	.	.
.	.	8ee\	.	4G/	4e/	.	.	.	.	.	.	.	.	.	.	.
.	.	8g\J	.	.	.	.	.	.	.	.	.	.	.	.	.	.
=183	=183	=183	=183	=183	=183	=183	=183	=183	=183	=183	=183	=183	=183	=183	=183	=183
2.C/	.	8cc\L	.	4G/	4e/	.	.	.	.	.	.	.	.	.	.	.
.	.	8b\	.	.	.	.	.	.	.	.	.	.	.	.	.	.
.	.	8cc\	.	4G/	4e/	.	.	.	.	.	.	.	.	.	.	.
.	.	8g\	.	.	.	.	.	.	.	.	.	.	.	.	.	.
.	.	8gg\	.	4G/	4e/	.	.	.	.	.	.	.	.	.	.	.
.	.	8g\J	.	.	.	.	.	.	.	.	.	.	.	.	.	.
=184	=184	=184	=184	=184	=184	=184	=184	=184	=184	=184	=184	=184	=184	=184	=184	=184
2.C/	.	8cc\L	.	4G/	4e/	.	.	.	.	.	.	.	.	.	.	.
.	.	8g\	.	.	.	.	.	.	.	.	.	.	.	.	.	.
.	.	8cc\	.	4G/	4e/	.	.	.	.	.	.	.	.	.	.	.
.	.	8g\	.	.	.	.	.	.	.	.	.	.	.	.	.	.
.	.	8ee\	.	4G/	4e/	.	.	.	.	.	.	.	.	.	.	.
.	.	8g\J	.	.	.	.	.	.	.	.	.	.	.	.	.	.
=185	=185	=185	=185	=185	=185	=185	=185	=185	=185	=185	=185	=185	=185	=185	=185	=185
2.C/	.	8a\L	.	4G/	4e/	.	.	.	.	.	.	.	.	.	.	.
.	.	8cc\	.	.	.	.	.	.	.	.	.	.	.	.	.	.
.	.	8b\	.	4G/	4e/	.	.	.	.	.	.	.	.	.	.	.
.	.	8dd\J	.	.	.	.	.	.	.	.	.	.	.	.	.	.
.	.	4cc\	.	4G/	4e/	.	.	.	.	.	.	.	.	.	.	.
=186	=186	=186	=186	=186	=186	=186	=186	=186	=186	=186	=186	=186	=186	=186	=186	=186
!	!	!LO:TUP:a:global:problem=klamra łukowa	!	!	!	!	!LO:N:vis=00	!	!LO:N:vis=00	!	!LO:N:vis=00	!	!LO:N:vis=00	!	!LO:N:vis=00	!LO:N:vis=00
2.C/	.	12dd\L	.	4G/	4e/	.	0.r	.	0.r	.	0.r	.	0.r	.	0.r	0.r
.	.	12ee\	.	.	.	.	.	.	.	.	.	.	.	.	.	.
.	.	12ff\J	.	.	.	.	.	.	.	.	.	.	.	.	.	.
.	.	12gg\L	.	4G/	4e/	.	.	.	.	.	.	.	.	.	.	.
.	.	12ff\	.	.	.	.	.	.	.	.	.	.	.	.	.	.
.	.	12ee\J	.	.	.	.	.	.	.	.	.	.	.	.	.	.
.	.	12dd\L	.	4G/	4e/	.	.	.	.	.	.	.	.	.	.	.
.	.	12cc\	.	.	.	.	.	.	.	.	.	.	.	.	.	.
.	.	12b\J	.	.	.	.	.	.	.	.	.	.	.	.	.	.
!LO:LB:g=original	!	!LO:LB:g=original	!	!LO:LB:g=original	!	!	!	!	!	!	!	!	!	!	!	!
=187	=187	=187	=187	=187	=187	=187	=187	=187	=187	=187	=187	=187	=187	=187	=187	=187
2.C/	.	4cc\	.	4G/	4e/	.	.	.	.	.	.	.	.	.	.	.
.	.	4ee\	.	4G/	4e/	.	.	.	.	.	.	.	.	.	.	.
.	.	4g\	.	4G/	4e/	.	.	.	.	.	.	.	.	.	.	.
=188	=188	=188	=188	=188	=188	=188	=188	=188	=188	=188	=188	=188	=188	=188	=188	=188
2.C/	.	8a\L	.	4G/	4e/	.	.	.	.	.	.	.	.	.	.	.
.	.	8g#X\	.	.	.	.	.	.	.	.	.	.	.	.	.	.
.	.	8a\	.	4G/	4e/	.	.	.	.	.	.	.	.	.	.	.
.	.	8cc\	.	.	.	.	.	.	.	.	.	.	.	.	.	.
.	.	8b\	.	4G/	4e/	.	.	.	.	.	.	.	.	.	.	.
.	.	8dd\J	.	.	.	.	.	.	.	.	.	.	.	.	.	.
=189	=189	=189	=189	=189	=189	=189	=189	=189	=189	=189	=189	=189	=189	=189	=189	=189
2.C/	.	8cc\L	.	4G/	4e/	.	.	.	.	.	.	.	.	.	.	.
.	.	8dd\	.	.	.	.	.	.	.	.	.	.	.	.	.	.
.	.	8ee\	.	4G/	4e/	.	.	.	.	.	.	.	.	.	.	.
.	.	8b\J	.	.	.	.	.	.	.	.	.	.	.	.	.	.
.	.	4cc\	.	4G/	4e/	.	.	.	.	.	.	.	.	.	.	.
=190	=190	=190	=190	=190	=190	=190	=190	=190	=190	=190	=190	=190	=190	=190	=190	=190
!	!	!	!	!	!	!	!LO:N:vis=0	!	!LO:N:vis=0	!	!LO:N:vis=00	!	!LO:N:vis=0	!	!LO:N:vis=0	!LO:N:vis=0
2.C/	.	12dd\L	.	4G/	4e/	.	1.r	.	1.r	.	1.r	.	1.r	.	1.r	1.r
.	.	12ee\	.	.	.	.	.	.	.	.	.	.	.	.	.	.
.	.	12ff\J	.	.	.	.	.	.	.	.	.	.	.	.	.	.
.	.	12gg\L	.	4G/	4e/	.	.	.	.	.	.	.	.	.	.	.
.	.	12ff\	.	.	.	.	.	.	.	.	.	.	.	.	.	.
.	.	12ee\J	.	.	.	.	.	.	.	.	.	.	.	.	.	.
.	.	12dd\L	.	4G/	4e/	.	.	.	.	.	.	.	.	.	.	.
.	.	12cc\	.	.	.	.	.	.	.	.	.	.	.	.	.	.
.	.	12b\J	.	.	.	.	.	.	.	.	.	.	.	.	.	.
=191	=191	=191	=191	=191	=191	=191	=191	=191	=191	=191	=191	=191	=191	=191	=191	=191
2.C/	.	4cc\	.	4G/	4e/	.	.	.	.	.	.	.	.	.	.	.
.	.	4ee\	.	4G/	4e/	.	.	.	.	.	.	.	.	.	.	.
.	.	4g\	.	4G/	4e/	.	.	.	.	.	.	.	.	.	.	.
=192	=192	=192	=192	=192	=192	=192	=192	=192	=192	=192	=192	=192	=192	=192	=192	=192
2.C/	.	4a\	.	4G/	4e/	.	2.r	.	2.r	.	2.r	.	2.r	.	2.r	2.r
.	.	8ff\L	.	4G/	4e/	.	.	.	.	.	.	.	.	.	.	.
.	.	8dd\	.	.	.	.	.	.	.	.	.	.	.	.	.	.
.	.	8cc\	.	4G/	4e/	.	.	.	.	.	.	.	.	.	.	.
.	.	8b\J	.	.	.	.	.	.	.	.	.	.	.	.	.	.
!	!	!	!	!	!	!	!	!	!	!	!	!	!	!	!LO:LB:g=original	!LO:LB:g=original
=193	=193	=193	=193	=193	=193	=193	=193	=193	=193	=193	=193	=193	=193	=193	=193	=193
4C/	.	4cc\	.	4G/	4e/	f	4r	.	4r	.	4r	.	4r	.	4r	4r
4r	.	4r	.	4r	4r	.	4r	.	4r	.	4r	.	4r	.	4r	4r
4G\	.	4r	.	4dd\	4bb\	.	4G\	A-	4B\	A-	4g\	A-	4dd\	A-	4g/	4dd\
=194	=194	=194	=194	=194	=194	=194	=194	=194	=194	=194	=194	=194	=194	=194	=194	=194
4C/	.	4cc\	.	4ee\	4ccc\	.	4c\	-men	4c\	-men	4g\	-men	4ee\	-men	4cc\	4ee\
4r	.	4r	.	4r	4r	.	4r	.	4r	.	4r	.	4r	.	4r	4r
4G\	.	4r	.	4g/	4dd\	.	4G\	A-	4B\	A-	4f\	A-	4dd\	A-	4g\	4dd\
=195	=195	=195	=195	=195	=195	=195	=195	=195	=195	=195	=195	=195	=195	=195	=195	=195
4C/	.	4cc\	.	4e 4G/	4cc 4e 4G/	.	4C/	-men	4G/	-men	4e\	-men	4cc\	-men	4e/	4cc\
4r	.	4r	.	4r	4r	.	4r	.	4r	.	4r	.	4r	.	4r	4r
4r	.	4r	.	4r	4r	.	4r	.	4r	.	4r	.	4r	.	4r	4r
==	==	==	==	==	==	==	==	==	==	==	==	==	==	==	==	==
*-	*-	*-	*-	*-	*-	*-	*-	*-	*-	*-	*-	*-	*-	*-	*-	*-
!!!system-decoration: [g1][g2][g3]{(s9,s10)}
!!!RDF**dynam: p = "p."
!!!RDF**kern: | = vertical stroke
!!!ENC: Marta Lawrence
!!!END: 2020-11-24
!!!ENC: Andrzej Borzym
!!!END: 2020-06-08
!!!YEC: Copyright 2022 Narodowy Instytut Fryderyka Chopina (https://polishscores.org)
!!!YEM: Licence CC BY 4.0 (https://creativecommons.org/licenses/by/4.0)
